;FLAVOR:RepRap
M104 S210.000000
M109 S210.000000
G28 ; Home
G1 Z15.0 F6000 ;move the platform down 15mm
;Prime the extruder
G92 E0
G1 F200 E3
G92 E0
;Generated with Cura_SteamEngine master
;LAYER_COUNT:80
;LAYER:0
M107
G0 F7200.000000 X104.903 Y74.201 Z0.200
G0 X110.197 Y71.078
;TYPE:SKIRT
G1 F900.000 X110.568 Y71.048 E0.01238
G1 X110.890 Y71.037 E0.02310
G1 X111.196 Y71.036 E0.03327
G1 X112.824 Y71.053 E0.08742
G1 X117.175 Y71.053 E0.23214
G1 X118.744 Y71.037 E0.28433
G1 X119.176 Y71.040 E0.29870
G1 X119.352 Y71.046 E0.30455
G1 X119.650 Y71.065 E0.31448
G1 X120.006 Y71.106 E0.32640
G1 X120.374 Y71.166 E0.33880
G1 X120.675 Y71.229 E0.34903
G1 X121.040 Y71.324 E0.36158
G1 X121.357 Y71.424 E0.37263
G1 X121.722 Y71.559 E0.38558
G1 X122.019 Y71.685 E0.39631
G1 X122.124 Y71.733 E0.40015
G1 X122.337 Y71.838 E0.40805
G1 X123.038 Y72.228 E0.43473
G1 X123.306 Y72.410 E0.44550
G1 X123.384 Y72.466 E0.44869
G1 X123.654 Y72.670 E0.45995
G1 X123.935 Y72.906 E0.47215
G1 X124.202 Y73.153 E0.48425
G1 X124.472 Y73.429 E0.49709
G1 X124.742 Y73.736 E0.51069
G1 X124.956 Y74.008 E0.52220
G1 X125.198 Y74.349 E0.53611
G1 X125.364 Y74.607 E0.54631
G1 X125.526 Y74.892 E0.55722
G1 X125.697 Y75.224 E0.56964
G1 X125.877 Y75.617 E0.58402
G1 X125.890 Y75.650 E0.58520
G1 X126.019 Y75.976 E0.59686
G1 X126.137 Y76.326 E0.60914
G1 X126.232 Y76.659 E0.62066
G1 X126.310 Y77.000 E0.63229
G1 X126.376 Y77.362 E0.64453
G1 X126.422 Y77.706 E0.65608
G1 X126.453 Y78.071 E0.66826
G1 X126.467 Y78.495 E0.68237
G1 X126.433 Y81.344 E0.77713
G1 X126.432 Y83.719 E0.85613
G1 X126.460 Y85.293 E0.90849
G1 X126.455 Y85.293 E0.90865
G1 X126.466 Y86.323 E0.94291
G1 X126.459 Y86.788 E0.95838
G1 X126.437 Y87.134 E0.96991
G1 X126.394 Y87.510 E0.98250
G1 X126.337 Y87.859 E0.99426
G1 X126.266 Y88.194 E1.00565
G1 X126.182 Y88.519 E1.01682
G1 X126.075 Y88.861 E1.02873
G1 X125.942 Y89.221 E1.04150
G1 X125.825 Y89.497 E1.05147
G1 X125.767 Y89.625 E1.05614
G1 X125.663 Y89.836 E1.06397
G1 X125.270 Y90.542 E1.09084
G1 X125.091 Y90.807 E1.10148
G1 X125.048 Y90.867 E1.10393
G1 X124.829 Y91.156 E1.11599
G1 X124.593 Y91.437 E1.12820
G1 X124.334 Y91.717 E1.14088
G1 X124.080 Y91.965 E1.15269
G1 X123.774 Y92.234 E1.16624
G1 X123.487 Y92.462 E1.17843
G1 X123.154 Y92.699 E1.19203
G1 X122.881 Y92.874 E1.20281
G1 X122.606 Y93.029 E1.21331
G1 X122.273 Y93.198 E1.22573
G1 X121.855 Y93.388 E1.24101
G1 X121.543 Y93.512 E1.25217
G1 X121.165 Y93.640 E1.26545
G1 X120.838 Y93.734 E1.27676
G1 X120.491 Y93.813 E1.28860
G1 X120.123 Y93.880 E1.30104
G1 X119.797 Y93.923 E1.31198
G1 X119.439 Y93.953 E1.32393
G1 X119.079 Y93.965 E1.33591
G1 X118.055 Y93.948 E1.36997
G1 X116.358 Y93.934 E1.42641
G1 X113.785 Y93.934 E1.51199
G1 X112.358 Y93.961 E1.55946
G1 X112.358 Y93.950 E1.55983
G1 X111.096 Y93.965 E1.60180
G1 X110.716 Y93.960 E1.61444
G1 X110.702 Y93.959 E1.61491
G1 X110.351 Y93.936 E1.62661
G1 X109.994 Y93.895 E1.63856
G1 X109.650 Y93.839 E1.65016
G1 X109.303 Y93.767 E1.66194
G1 X108.985 Y93.684 E1.67287
G1 X108.637 Y93.575 E1.68500
G1 X108.283 Y93.443 E1.69757
G1 X108.056 Y93.346 E1.70578
G1 X107.215 Y92.927 E1.73703
G1 X107.053 Y92.831 E1.74329
G1 X106.917 Y92.744 E1.74866
G1 X106.680 Y92.583 E1.75819
G1 X106.621 Y92.541 E1.76060
G1 X106.356 Y92.339 E1.77168
G1 X106.052 Y92.084 E1.78488
G1 X105.785 Y91.837 E1.79698
G1 X105.536 Y91.582 E1.80883
G1 X105.257 Y91.265 E1.82288
G1 X105.056 Y91.011 E1.83365
G1 X105.016 Y90.958 E1.83586
G1 X104.812 Y90.672 E1.84754
G1 X104.620 Y90.371 E1.85942
G1 X104.467 Y90.100 E1.86977
G1 X104.302 Y89.774 E1.88192
G1 X104.112 Y89.356 E1.89719
G1 X103.988 Y89.044 E1.90836
G1 X103.865 Y88.682 E1.92108
G1 X103.765 Y88.328 E1.93331
G1 X103.687 Y87.988 E1.94491
G1 X103.623 Y87.634 E1.95688
G1 X103.576 Y87.278 E1.96882
G1 X103.547 Y86.941 E1.98007
G1 X103.538 Y86.676 E1.98889
G1 X103.535 Y86.266 E2.00253
G1 X103.552 Y84.695 E2.05478
G1 X103.552 Y80.212 E2.20389
G1 X103.536 Y78.607 E2.25727
G1 X103.539 Y78.301 E2.26745
G1 X103.546 Y78.126 E2.27328
G1 X103.564 Y77.857 E2.28224
G1 X103.603 Y77.503 E2.29409
G1 X103.663 Y77.133 E2.30656
G1 X103.727 Y76.831 E2.31682
G1 X103.821 Y76.469 E2.32926
G1 X103.927 Y76.133 E2.34098
G1 X104.057 Y75.784 E2.35337
G1 X104.154 Y75.557 E2.36158
G1 X104.573 Y74.716 E2.39283
G1 X104.670 Y74.553 E2.39914
G1 X104.761 Y74.411 E2.40475
G1 X104.903 Y74.201 E2.41318
G1 X104.984 Y74.089 E2.41778
G1 X105.159 Y73.859 E2.42739
G1 X105.412 Y73.557 E2.44049
G1 X105.651 Y73.299 E2.45219
G1 X105.932 Y73.025 E2.46524
G1 X106.196 Y72.792 E2.47696
G1 X106.244 Y72.752 E2.47903
G1 X106.524 Y72.530 E2.49092
G1 X106.542 Y72.517 E2.49166
G1 X106.831 Y72.312 E2.50344
G1 X107.112 Y72.133 E2.51452
G1 X107.391 Y71.974 E2.52520
G1 X107.723 Y71.803 E2.53762
G1 X108.116 Y71.623 E2.55200
G1 X108.149 Y71.610 E2.55318
G1 X108.475 Y71.481 E2.56484
G1 X108.815 Y71.367 E2.57677
G1 X109.172 Y71.266 E2.58911
G1 X109.530 Y71.184 E2.60132
G1 X109.856 Y71.124 E2.61235
G1 X110.176 Y71.081 E2.62309
G1 X110.197 Y71.078 E2.62379
G0 F7200.00000 X111.287 Y71.435
G1 F900.000 X112.856 Y71.453 E2.67598
G1 X117.226 Y71.453 E2.82133
G1 X118.906 Y71.437 E2.87721
G1 X119.207 Y71.439 E2.88722
G1 X119.266 Y71.441 E2.88918
G1 X119.627 Y71.464 E2.90122
G1 X119.940 Y71.499 E2.91169
G1 X120.281 Y71.555 E2.92318
G1 X120.604 Y71.624 E2.93417
G1 X120.932 Y71.710 E2.94545
G1 X121.228 Y71.802 E2.95576
G1 X121.580 Y71.932 E2.96824
G1 X121.897 Y72.068 E2.97971
G1 X121.904 Y72.071 E2.97996
G1 X122.142 Y72.188 E2.98878
G1 X122.835 Y72.573 E3.01515
G1 X123.069 Y72.732 E3.02456
G1 X123.142 Y72.784 E3.02754
G1 X123.406 Y72.984 E3.03856
G1 X123.670 Y73.206 E3.05003
G1 X123.931 Y73.447 E3.06185
G1 X124.171 Y73.693 E3.07328
G1 X124.435 Y73.994 E3.08659
G1 X124.623 Y74.230 E3.09663
G1 X124.644 Y74.258 E3.09779
G1 X124.871 Y74.579 E3.11087
G1 X125.018 Y74.808 E3.11992
G1 X125.174 Y75.080 E3.13035
G1 X125.338 Y75.402 E3.14237
G1 X125.520 Y75.800 E3.15692
G1 X125.640 Y76.103 E3.16776
G1 X125.755 Y76.446 E3.17980
G1 X125.845 Y76.762 E3.19072
G1 X125.923 Y77.102 E3.20233
G1 X125.978 Y77.401 E3.21244
G1 X126.024 Y77.737 E3.22372
G1 X126.054 Y78.091 E3.23553
G1 X126.065 Y78.432 E3.24688
G1 X126.048 Y79.418 E3.27968
G1 X126.033 Y81.099 E3.33559
G1 X126.032 Y83.743 E3.42353
G1 X126.059 Y85.313 E3.47576
G1 X126.055 Y85.313 E3.47589
G1 X126.066 Y86.318 E3.50932
G1 X126.059 Y86.769 E3.52432
G1 X126.038 Y87.111 E3.53572
G1 X125.999 Y87.445 E3.54690
G1 X125.944 Y87.783 E3.55829
G1 X125.875 Y88.112 E3.56947
G1 X125.798 Y88.410 E3.57971
G1 X125.697 Y88.731 E3.59090
G1 X125.568 Y89.081 E3.60331
G1 X125.430 Y89.402 E3.61493
G1 X125.312 Y89.643 E3.62386
G1 X124.927 Y90.335 E3.65019
G1 X124.742 Y90.608 E3.66116
G1 X124.520 Y90.901 E3.67339
G1 X124.290 Y91.175 E3.68529
G1 X124.047 Y91.438 E3.69720
G1 X123.807 Y91.672 E3.70835
G1 X123.503 Y91.939 E3.72180
G1 X123.266 Y92.127 E3.73187
G1 X122.925 Y92.370 E3.74579
G1 X122.682 Y92.526 E3.75540
G1 X122.413 Y92.679 E3.76569
G1 X122.108 Y92.835 E3.77708
G1 X121.699 Y93.020 E3.79201
G1 X121.404 Y93.136 E3.80256
G1 X121.039 Y93.261 E3.81539
G1 X120.746 Y93.344 E3.82552
G1 X120.395 Y93.425 E3.83750
G1 X120.079 Y93.482 E3.84818
G1 X119.760 Y93.524 E3.85888
G1 X119.409 Y93.553 E3.87059
G1 X119.002 Y93.567 E3.88414
G1 X116.148 Y93.534 E3.97907
G1 X113.791 Y93.534 E4.05746
G1 X112.337 Y93.561 E4.10583
G1 X112.337 Y93.551 E4.10617
G1 X111.098 Y93.566 E4.14738
G1 X110.737 Y93.561 E4.15939
G1 X110.723 Y93.560 E4.15985
G1 X110.391 Y93.538 E4.17092
G1 X110.046 Y93.499 E4.18247
G1 X109.719 Y93.446 E4.19349
G1 X109.398 Y93.378 E4.20440
G1 X109.097 Y93.300 E4.21474
G1 X108.762 Y93.195 E4.22642
G1 X108.409 Y93.063 E4.23895
G1 X108.088 Y92.926 E4.25056
G1 X108.067 Y92.916 E4.25133
G1 X107.860 Y92.815 E4.25899
G1 X107.175 Y92.436 E4.28503
G1 X106.989 Y92.311 E4.29249
G1 X106.802 Y92.177 E4.30014
G1 X106.590 Y92.016 E4.30899
G1 X106.331 Y91.797 E4.32027
G1 X106.069 Y91.554 E4.33216
G1 X105.827 Y91.307 E4.34366
G1 X105.620 Y91.074 E4.35403
G1 X105.535 Y90.971 E4.35847
G1 X105.348 Y90.734 E4.36851
G1 X105.133 Y90.432 E4.38084
G1 X104.974 Y90.182 E4.39069
G1 X104.821 Y89.914 E4.40096
G1 X104.663 Y89.603 E4.41256
G1 X104.480 Y89.200 E4.42728
G1 X104.364 Y88.905 E4.43782
G1 X104.241 Y88.545 E4.45048
G1 X104.156 Y88.245 E4.46085
G1 X104.075 Y87.894 E4.47283
G1 X104.019 Y87.584 E4.48331
G1 X103.973 Y87.239 E4.49488
G1 X103.947 Y86.914 E4.50573
G1 X103.936 Y86.602 E4.51611
G1 X103.935 Y86.462 E4.52077
G1 X103.952 Y84.712 E4.57897
G1 X103.952 Y80.266 E4.72685
G1 X103.935 Y78.574 E4.78313
G1 X103.937 Y78.368 E4.78998
G1 X103.947 Y78.120 E4.79823
G1 X103.962 Y77.885 E4.80607
G1 X103.999 Y77.564 E4.81681
G1 X104.056 Y77.211 E4.82871
G1 X104.118 Y76.917 E4.83870
G1 X104.213 Y76.552 E4.85124
G1 X104.300 Y76.277 E4.86084
G1 X104.437 Y75.910 E4.87387
G1 X104.570 Y75.597 E4.88518
G1 X104.584 Y75.568 E4.88625
G1 X104.685 Y75.361 E4.89391
G1 X105.061 Y74.681 E4.91975
G1 X105.085 Y74.644 E4.92122
G1 X105.182 Y74.501 E4.92697
G1 X105.341 Y74.280 E4.93602
G1 X105.468 Y74.113 E4.94300
G1 X105.717 Y73.816 E4.95589
G1 X105.944 Y73.571 E4.96700
G1 X106.186 Y73.334 E4.97827
G1 X106.212 Y73.310 E4.97944
G1 X106.437 Y73.112 E4.98941
G1 X106.522 Y73.041 E4.99310
G1 X106.772 Y72.844 E5.00368
G1 X107.063 Y72.638 E5.01554
G1 X107.308 Y72.481 E5.02522
G1 X107.579 Y72.326 E5.03560
G1 X107.901 Y72.162 E5.04762
G1 X108.300 Y71.980 E5.06221
G1 X108.298 Y71.980 E5.06227
G1 X108.602 Y71.860 E5.07314
G1 X108.945 Y71.744 E5.08519
G1 X109.257 Y71.656 E5.09597
G1 X109.604 Y71.577 E5.10781
G1 X109.926 Y71.519 E5.11869
G1 X110.244 Y71.476 E5.12936
G1 X110.517 Y71.452 E5.13848
G1 X110.637 Y71.445 E5.14247
G1 X110.890 Y71.437 E5.15089
G1 X111.287 Y71.435 E5.16410
G1 F1500.00000 E0.66410
G1 Z0.400
G0 F7200.000 X111.431 Y75.253 Z0.400
;TYPE:WALL-INNER
G1 Z0.200
G1 F1500.000 E5.16410
G1 F1200.00000 X118.568 Y75.253 E5.40148
G1 X119.008 Y75.227 E5.41614
G1 X119.302 Y75.241 E5.42593
G1 X119.619 Y75.288 E5.43658
G1 X119.897 Y75.356 E5.44610
G1 X120.195 Y75.461 E5.45661
G1 X120.606 Y75.657 E5.47176
G1 X120.793 Y75.765 E5.47894
G1 X121.063 Y75.964 E5.49009
G1 X121.319 Y76.195 E5.50156
G1 X121.535 Y76.433 E5.51225
G1 X121.731 Y76.702 E5.52332
G1 X121.849 Y76.900 E5.53099
G1 X122.039 Y77.300 E5.54572
G1 X122.147 Y77.607 E5.55654
G1 X122.214 Y77.882 E5.56596
G1 X122.260 Y78.191 E5.57635
G1 X122.275 Y78.497 E5.58654
G1 X122.258 Y78.813 E5.59706
G1 X122.233 Y79.002 E5.60340
G1 X122.232 Y85.999 E5.83612
G1 X122.258 Y86.186 E5.84240
G1 X122.274 Y86.500 E5.85286
G1 X122.259 Y86.800 E5.86285
G1 X122.212 Y87.117 E5.87351
G1 X122.143 Y87.400 E5.88320
G1 X122.038 Y87.699 E5.89374
G1 X121.850 Y88.096 E5.90835
G1 X121.732 Y88.300 E5.91619
G1 X121.541 Y88.559 E5.92689
G1 X121.307 Y88.818 E5.93850
G1 X121.065 Y89.038 E5.94938
G1 X120.802 Y89.230 E5.96021
G1 X120.596 Y89.352 E5.96817
G1 X120.192 Y89.542 E5.98302
G1 X119.900 Y89.646 E5.99333
G1 X119.622 Y89.714 E6.00285
G1 X119.306 Y89.760 E6.01347
G1 X119.001 Y89.775 E6.02363
G1 X118.684 Y89.758 E6.03418
G1 X118.500 Y89.734 E6.04036
G1 X111.498 Y89.734 E6.27324
G1 X111.314 Y89.758 E6.27942
G1 X111.001 Y89.774 E6.28984
G1 X110.693 Y89.758 E6.30010
G1 X110.384 Y89.714 E6.31048
G1 X110.095 Y89.643 E6.32038
G1 X109.810 Y89.542 E6.33043
G1 X109.396 Y89.347 E6.34565
G1 X109.206 Y89.235 E6.35299
G1 X108.941 Y89.041 E6.36391
G1 X108.675 Y88.801 E6.37583
G1 X108.464 Y88.567 E6.38631
G1 X108.271 Y88.307 E6.39708
G1 X108.144 Y88.089 E6.40547
G1 X107.957 Y87.692 E6.42007
G1 X107.856 Y87.406 E6.43015
G1 X107.785 Y87.118 E6.44002
G1 X107.740 Y86.808 E6.45044
G1 X107.726 Y86.510 E6.46036
G1 X107.752 Y86.072 E6.47495
G1 X107.752 Y78.929 E6.71253
G1 X107.726 Y78.492 E6.72709
G1 X107.741 Y78.195 E6.73698
G1 X107.787 Y77.879 E6.74760
G1 X107.855 Y77.601 E6.75712
G1 X107.959 Y77.308 E6.76746
G1 X108.153 Y76.897 E6.78258
G1 X108.265 Y76.707 E6.78992
G1 X108.463 Y76.437 E6.80105
G1 X108.695 Y76.179 E6.81259
G1 X108.929 Y75.967 E6.82309
G1 X109.206 Y75.765 E6.83450
G1 X109.398 Y75.652 E6.84191
G1 X109.799 Y75.461 E6.85668
G1 X110.099 Y75.356 E6.86725
G1 X110.390 Y75.285 E6.87721
G1 X110.693 Y75.240 E6.88740
G1 X110.987 Y75.227 E6.89719
G1 X111.431 Y75.253 E6.91198
G0 F7200.00000 X111.437 Y76.661
G1 F1200.000 X110.660 Y77.438 E6.94853
G1 X110.376 Y78.500 E6.98509
G1 X110.660 Y79.563 E7.02169
G1 X111.599 Y80.501 E7.06583
G1 X110.660 Y81.438 E7.10995
G1 X110.376 Y82.500 E7.14652
G1 X110.660 Y83.563 E7.18311
G1 X111.599 Y84.501 E7.22726
G1 X110.660 Y85.438 E7.27138
G1 X110.376 Y86.500 E7.30794
G1 X110.660 Y87.563 E7.34454
G1 X111.437 Y88.340 E7.38108
G1 X112.500 Y88.624 E7.41768
G1 X113.562 Y88.340 E7.45424
G1 X114.339 Y87.563 E7.49079
G1 X114.623 Y86.500 E7.52739
G1 X114.339 Y85.437 E7.56398
G1 X113.401 Y84.501 E7.60806
G1 X114.339 Y83.563 E7.65218
G1 X114.623 Y82.500 E7.68877
G1 X114.339 Y81.437 E7.72537
G1 X113.401 Y80.500 E7.76947
G1 X114.339 Y79.563 E7.81356
G1 X114.623 Y78.500 E7.85016
G1 X114.339 Y77.437 E7.88675
G1 X113.563 Y76.661 E7.92325
G1 X112.500 Y76.377 E7.95985
G1 X111.437 Y76.661 E7.99645
G0 F7200.00000 X111.387 Y76.575
G0 X112.500 Y76.337
G0 X113.582 Y76.627
G0 X115.660 Y77.437
G1 F1200.000 X115.376 Y78.500 E8.03304
G1 X115.660 Y79.563 E8.06964
G1 X116.598 Y80.500 E8.11373
G1 X115.660 Y81.437 E8.15783
G1 X115.376 Y82.500 E8.19443
G1 X115.660 Y83.563 E8.23102
G1 X116.598 Y84.500 E8.27512
G1 X115.660 Y85.437 E8.31922
G1 X115.376 Y86.500 E8.35581
G1 X115.660 Y87.563 E8.39241
G1 X116.437 Y88.340 E8.42896
G1 X117.500 Y88.624 E8.46555
G1 X118.562 Y88.340 E8.50211
G1 X119.339 Y87.563 E8.53866
G1 X119.623 Y86.500 E8.57526
G1 X119.339 Y85.437 E8.61185
G1 X118.401 Y84.501 E8.65593
G1 X119.339 Y83.563 E8.70005
G1 X119.623 Y82.500 E8.73664
G1 X119.339 Y81.437 E8.77324
G1 X118.401 Y80.500 E8.81734
G1 X119.339 Y79.563 E8.86143
G1 X119.623 Y78.500 E8.89803
G1 X119.339 Y77.437 E8.93462
G1 X118.563 Y76.661 E8.97112
G1 X117.500 Y76.377 E9.00772
G1 X116.437 Y76.661 E9.04432
G1 X115.660 Y77.437 E9.08084
G0 F7200.00000 X116.645 Y77.019
;TYPE:WALL-OUTER
G1 F1200.000 X116.018 Y77.645 E9.11031
G1 X115.789 Y78.500 E9.13975
G1 X116.018 Y79.355 E9.16919
G1 X116.645 Y79.982 E9.19868
G1 X117.500 Y80.211 E9.22812
G1 X118.355 Y79.982 E9.25756
G1 X118.981 Y79.355 E9.28703
G1 X119.210 Y78.500 E9.31647
G1 X118.981 Y77.645 E9.34591
G1 X118.355 Y77.019 E9.37535
G1 X117.500 Y76.790 E9.40479
G1 X116.645 Y77.019 E9.43423
G0 F7200.00000 X116.519 Y76.536
G0 X115.626 Y77.417
G0 X113.981 Y79.355
G1 F1200.000 X114.210 Y78.500 E9.46367
G1 X113.981 Y77.645 E9.49311
G1 X113.355 Y77.019 E9.52256
G1 X112.500 Y76.790 E9.55200
G1 X111.645 Y77.019 E9.58144
G1 X111.018 Y77.646 E9.61093
G1 X110.790 Y78.500 E9.64033
G1 X111.018 Y79.355 E9.66976
G1 X111.645 Y79.982 E9.69925
G1 X112.500 Y80.211 E9.72869
G1 X113.355 Y79.982 E9.75813
G1 X113.981 Y79.355 E9.78760
G0 F7200.00000 X114.462 Y79.484
G0 X114.663 Y78.500
G0 X114.373 Y77.418
G0 X113.582 Y76.627
G0 X112.500 Y76.337
G0 X111.418 Y76.627
G0 X110.626 Y77.419
G0 X110.336 Y78.500
G0 X110.626 Y79.583
G0 X111.645 Y81.019
G1 F1200.000 X111.018 Y81.646 E9.81709
G1 X110.790 Y82.500 E9.84649
G1 X111.018 Y83.355 E9.87592
G1 X111.645 Y83.982 E9.90541
G1 X112.500 Y84.211 E9.93485
G1 X113.355 Y83.982 E9.96429
G1 X113.981 Y83.355 E9.99376
G1 X114.210 Y82.500 E10.02320
G1 X113.981 Y81.645 E10.05264
G1 X113.355 Y81.019 E10.08209
G1 X112.500 Y80.790 E10.11153
G1 X111.645 Y81.019 E10.14097
G0 F7200.00000 X111.294 Y80.665
G0 X110.626 Y79.583
G0 X110.336 Y78.500
G0 X110.626 Y77.419
G0 X111.418 Y76.627
G0 X112.500 Y76.337
G0 X113.582 Y76.627
G0 X114.373 Y77.418
G0 X116.018 Y81.645
G1 F1200.000 X115.789 Y82.500 E10.17041
G1 X116.018 Y83.355 E10.19985
G1 X116.645 Y83.982 E10.22934
G1 X117.500 Y84.211 E10.25878
G1 X118.355 Y83.982 E10.28822
G1 X118.981 Y83.355 E10.31769
G1 X119.210 Y82.500 E10.34713
G1 X118.981 Y81.645 E10.37657
G1 X118.355 Y81.019 E10.40601
G1 X117.500 Y80.790 E10.43545
G1 X116.645 Y81.019 E10.46489
G1 X116.018 Y81.645 E10.49436
G0 F7200.00000 X115.537 Y81.516
G0 X115.336 Y82.500
G0 X115.626 Y83.582
G0 X116.645 Y85.019
G1 F1200.000 X116.018 Y85.645 E10.52383
G1 X115.789 Y86.500 E10.55327
G1 X116.018 Y87.355 E10.58271
