;FLAVOR:RepRap
M190 S60.000000
M104 S245.000000
M109 S245.000000
G21 ;metric values
G90 ;absolute positioning
M82 ;set extruder to absolute mode
M107 ;start with the fan off
G28 X0 Y0 ;move X/Y to min endstops
G28 Z0 ;move Z to min endstops
G1 Z15.0 F9000 ;move the platform down 15mm
G92 E0 ;zero the extruded length
G1 F200 E3 ;extrude 3mm of feed stock
G92 E0 ;zero the extruded length again
G1 F9000
;Put printing message on LCD screen
M117 Printing...
;Generated with Cura_SteamEngine master
;LAYER_COUNT:148
;LAYER:0
M107
G0 F7200.000000 X97.743 Y97.746 Z0.300
G0 X100.457 Y96.800
;TYPE:SKIRT
G1 F1800.000 X182.736 Y96.800 E1.54771
G1 X185.564 Y96.760 E1.60092
G1 X188.747 Y96.619 E1.66085
G1 X188.901 Y96.610 E1.66375
G1 X189.147 Y96.602 E1.66838
G1 X189.357 Y96.600 E1.67233
G1 X199.493 Y96.600 E1.86299
G1 X200.199 Y96.610 E1.87628
G1 X200.356 Y96.617 E1.87923
G1 X200.673 Y96.646 E1.88522
G1 X200.695 Y96.649 E1.88564
G1 X200.706 Y96.651 E1.88585
G1 X200.856 Y96.682 E1.88873
G1 X201.161 Y96.761 E1.89466
G1 X201.208 Y96.774 E1.89557
G1 X201.339 Y96.824 E1.89821
G1 X201.650 Y96.959 E1.90459
G1 X201.654 Y96.960 E1.90467
G1 X201.682 Y96.975 E1.90526
G1 X201.784 Y97.034 E1.90748
G1 X202.073 Y97.218 E1.91392
G1 X202.074 Y97.219 E1.91395
G1 X202.081 Y97.224 E1.91411
G1 X202.230 Y97.345 E1.91772
G1 X202.454 Y97.543 E1.92335
G1 X202.480 Y97.569 E1.92404
G1 X202.561 Y97.659 E1.92632
G1 X202.779 Y97.925 E1.93278
G1 X202.788 Y97.936 E1.93305
G1 X202.799 Y97.951 E1.93340
G1 X202.876 Y98.071 E1.93608
G1 X203.050 Y98.369 E1.94258
G1 X203.055 Y98.377 E1.94275
G1 X203.113 Y98.509 E1.94546
G1 X203.241 Y98.837 E1.95209
G1 X203.245 Y98.848 E1.95231
G1 X203.279 Y98.978 E1.95484
G1 X203.341 Y99.265 E1.96036
G1 X203.389 Y99.775 E1.96999
G1 X203.398 Y100.047 E1.97511
G1 X203.400 Y100.206 E1.97811
G1 X203.400 Y110.393 E2.16973
G1 X203.390 Y111.099 E2.18301
G1 X203.347 Y112.121 E2.20225
G1 X203.278 Y113.404 E2.22642
G1 X203.200 Y117.344 E2.30055
G1 X203.200 Y199.293 E3.84205
G1 X203.190 Y199.999 E3.85534
G1 X203.183 Y200.156 E3.85829
G1 X203.154 Y200.473 E3.86428
G1 X203.151 Y200.495 E3.86470
G1 X203.150 Y200.504 E3.86487
G1 X203.121 Y200.643 E3.86754
G1 X203.039 Y200.961 E3.87372
G1 X203.030 Y200.995 E3.87438
G1 X203.027 Y201.005 E3.87457
G1 X202.976 Y201.139 E3.87727
G1 X202.845 Y201.442 E3.88348
G1 X202.840 Y201.454 E3.88373
G1 X202.829 Y201.474 E3.88415
G1 X202.766 Y201.584 E3.88654
G1 X202.582 Y201.873 E3.89298
G1 X202.576 Y201.882 E3.89319
G1 X202.455 Y202.030 E3.89678
G1 X202.257 Y202.254 E3.90241
G1 X202.231 Y202.280 E3.90310
G1 X202.147 Y202.356 E3.90523
G1 X201.860 Y202.591 E3.91221
G1 X201.858 Y202.593 E3.91226
G1 X201.848 Y202.599 E3.91248
G1 X201.729 Y202.676 E3.91515
G1 X201.433 Y202.849 E3.92159
G1 X201.427 Y202.853 E3.92173
G1 X201.416 Y202.858 E3.92196
G1 X201.283 Y202.916 E3.92469
G1 X200.960 Y203.042 E3.93121
G1 X200.961 Y203.042 E3.93123
G1 X200.942 Y203.048 E3.93160
G1 X200.822 Y203.079 E3.93393
G1 X200.535 Y203.141 E3.93946
G1 X200.019 Y203.189 E3.94921
G1 X199.999 Y203.190 E3.94958
G1 X199.753 Y203.198 E3.95421
G1 X199.543 Y203.200 E3.95816
G1 X112.707 Y203.200 E5.59160
G1 X110.937 Y203.175 E5.62489
G1 X110.539 Y203.163 E5.63238
G1 X107.295 Y203.164 E5.69341
G1 X100.598 Y203.275 E5.81940
G1 X99.838 Y203.277 E5.83369
G1 X99.719 Y203.273 E5.83593
G1 X99.712 Y203.273 E5.83606
G1 X99.350 Y203.245 E5.84289
G1 X99.189 Y203.214 E5.84598
G1 X98.861 Y203.135 E5.85232
G1 X98.696 Y203.075 E5.85563
G1 X98.397 Y202.951 E5.86172
G1 X98.364 Y202.934 E5.86241
G1 X98.251 Y202.871 E5.86485
G1 X97.964 Y202.695 E5.87118
G1 X97.958 Y202.691 E5.87132
G1 X97.949 Y202.684 E5.87153
G1 X97.830 Y202.591 E5.87437
G1 X97.566 Y202.365 E5.88091
G1 X97.562 Y202.361 E5.88102
G1 X97.463 Y202.254 E5.88376
G1 X97.235 Y201.984 E5.89040
G1 X97.161 Y201.874 E5.89290
G1 X96.971 Y201.559 E5.89982
G1 X96.891 Y201.385 E5.90342
G1 X96.775 Y201.100 E5.90921
G1 X96.771 Y201.089 E5.90943
G1 X96.737 Y200.969 E5.91178
G1 X96.653 Y200.606 E5.91878
G1 X96.635 Y200.446 E5.92181
G1 X96.610 Y200.087 E5.92858
G1 X96.607 Y200.000 E5.93022
G1 X96.600 Y199.420 E5.94113
G1 X96.600 Y189.607 E6.12572
G1 X96.610 Y188.900 E6.13902
G1 X96.653 Y187.879 E6.15824
G1 X96.722 Y186.596 E6.18241
G1 X96.800 Y182.656 E6.25654
G1 X96.800 Y100.701 E7.79816
G1 X96.810 Y100.000 E7.81134
G1 X96.817 Y99.836 E7.81443
G1 X96.846 Y99.527 E7.82027
G1 X96.850 Y99.496 E7.82086
G1 X96.851 Y99.494 E7.82090
G1 X96.882 Y99.344 E7.82378
G1 X96.965 Y99.023 E7.83002
G1 X96.974 Y98.992 E7.83063
G1 X97.024 Y98.861 E7.83326
G1 X97.160 Y98.547 E7.83970
G1 X97.175 Y98.518 E7.84031
G1 X97.234 Y98.416 E7.84253
G1 X97.425 Y98.117 E7.84920
G1 X97.545 Y97.970 E7.85277
G1 X97.743 Y97.746 E7.85840
G1 X97.769 Y97.720 E7.85909
G1 X97.859 Y97.639 E7.86137
G1 X98.140 Y97.409 E7.86820
G1 X98.142 Y97.407 E7.86825
G1 X98.152 Y97.401 E7.86847
G1 X98.271 Y97.324 E7.87114
G1 X98.574 Y97.147 E7.87774
G1 X98.587 Y97.141 E7.87801
G1 X98.717 Y97.084 E7.88068
G1 X99.040 Y96.958 E7.88720
G1 X99.039 Y96.958 E7.88722
G1 X99.058 Y96.952 E7.88759
G1 X99.178 Y96.921 E7.88992
G1 X99.465 Y96.859 E7.89545
G1 X99.981 Y96.811 E7.90519
G1 X100.001 Y96.810 E7.90557
G1 X100.247 Y96.802 E7.91020
G1 X100.457 Y96.800 E7.91415
G0 F7200.00000 X189.528 Y98.472
G0 X188.900 Y99.800
;TYPE:SUPPORT
G1 F1800.000 X200.200 Y99.800 E8.12671
G1 X200.200 Y111.100 E8.33927
G1 X188.900 Y111.100 E8.55183
G1 X188.900 Y99.800 E8.76439
G0 F7200.00000 X189.600 Y99.800
G0 X192.001 Y104.990
G1 F1800.000 X191.415 Y105.205 E8.77613
G1 X190.859 Y105.536 E8.78830
G1 X190.433 Y106.028 E8.80054
G1 X190.174 Y106.476 E8.81028
G1 X189.971 Y107.146 E8.82345
G1 X189.971 Y107.799 E8.83573
G1 X190.112 Y108.410 E8.84753
G1 X190.426 Y108.979 E8.85975
G1 X190.852 Y109.442 E8.87159
G1 X191.414 Y109.805 E8.88417
G1 X192.007 Y110.002 E8.89592
G1 X192.639 Y110.035 E8.90783
G1 X193.319 Y109.929 E8.92077
G1 X193.900 Y109.625 E8.93311
G1 X194.384 Y109.227 E8.94490
G1 X194.738 Y108.704 E8.95678
G1 X194.987 Y108.094 E8.96917
G1 X195.040 Y107.405 E8.98217
G1 X194.953 Y106.796 E8.99374
G1 X194.721 Y106.261 E9.00471
G1 X194.330 Y105.736 E9.01702
G1 X193.841 Y105.341 E9.02885
G1 X193.325 Y105.091 E9.03963
G1 X192.702 Y104.959 E9.05161
G1 X192.001 Y104.990 E9.06481
G0 F7200.00000 X191.520 Y105.210
G1 F1800.000 X191.520 Y99.760 E9.16733
G0 F7200.00000 X189.600 Y101.080
G0 X188.860 Y101.080
G1 F1800.000 X200.240 Y101.080 E9.38139
G0 F7200.00000 X196.840 Y99.760
G1 F1800.000 X196.840 Y111.140 E9.59546
G0 F7200.00000 X196.840 Y110.400
G0 X194.737 Y106.400
G1 F1800.000 X200.240 Y106.400 E9.69897
G0 F7200.00000 X191.520 Y109.798
G1 F1800.000 X191.520 Y111.140 E9.72421
G0 F7200.00000 X191.520 Y110.400
G0 X190.263 Y106.400
G1 F1800.000 X188.860 Y106.400 E9.75061
G1 F1500.00000 E5.25061
G0 F7200.00000 X189.600 Y106.400
G0 X189.527 Y106.475
G0 X143.471 Y154.862
G0 X134.027 Y164.784
G0 X111.100 Y188.900
G1 F1500.000 E9.75061
G1 F1800.00000 X111.100 Y199.901 E9.95754
G1 X99.800 Y200.087 E10.17013
G1 X99.800 Y188.900 E10.38056
G1 X111.100 Y188.900 E10.59312
G0 F7200.00000 X110.570 Y189.430
G0 X110.509 Y189.659
G0 X109.953 Y191.796
G1 F1800.000 X109.721 Y191.261 E10.60409
G1 X109.330 Y190.736 E10.61640
G1 X108.841 Y190.341 E10.62823
G1 X108.325 Y190.091 E10.63901
G1 X107.702 Y189.959 E10.65099
G1 X107.001 Y189.990 E10.66419
G1 X106.415 Y190.205 E10.67593
G1 X105.859 Y190.536 E10.68811
G1 X105.433 Y191.028 E10.70035
G1 X105.174 Y191.476 E10.71008
G1 X104.971 Y192.146 E10.72325
G1 X104.971 Y192.799 E10.73553
G1 X105.112 Y193.410 E10.74733
G1 X105.426 Y193.979 E10.75955
G1 X105.852 Y194.442 E10.77139
G1 X106.414 Y194.805 E10.78397
G1 X107.007 Y195.002 E10.79573
G1 X107.639 Y195.035 E10.80763
G1 X108.319 Y194.929 E10.82058
G1 X108.900 Y194.625 E10.83291
G1 X109.384 Y194.227 E10.84470
G1 X109.738 Y193.704 E10.85658
G1 X109.987 Y193.094 E10.86897
G1 X110.040 Y192.405 E10.88197
G1 X109.953 Y191.796 E10.89354
G0 F7200.00000 X109.788 Y191.520
G1 F1800.000 X111.139 Y191.520 E10.91896
G0 F7200.00000 X110.400 Y191.520
G0 X106.400 Y190.261
G1 F1800.000 X106.400 Y188.860 E10.94531
G0 F7200.00000 X106.400 Y189.600
G0 X105.201 Y191.520
G1 F1800.000 X99.759 Y191.520 E11.04768
G0 F7200.00000 X101.080 Y189.600
G0 X101.080 Y188.860
G1 F1800.000 X101.080 Y200.107 E11.25924
G0 F7200.00000 X99.759 Y196.840
G1 F1800.000 X111.139 Y196.840 E11.47330
G0 F7200.00000 X110.400 Y196.840
G0 X106.400 Y194.748
G1 F1800.000 X106.400 Y200.019 E11.57245
G1 F1500.00000 E7.07245
G0 F7200.00000 X110.458 Y199.612
G0 X112.628 Y199.372
G0 X112.670 Y199.330
G0 X112.600 Y199.400
;TYPE:WALL-INNER
G1 F1500.000 E11.57245
G1 F1800.00000 X112.600 Y187.400 E11.79818
G1 X100.600 Y187.400 E12.02391
G1 X100.600 Y100.600 E13.65666
G1 X187.400 Y100.600 E15.28942
G1 X187.400 Y112.600 E15.51515
G1 X199.400 Y112.600 E15.74087
G1 X199.400 Y199.400 E17.37363
G1 X112.600 Y199.400 E19.00639
G0 F7200.00000 X112.670 Y199.300
G0 X112.628 Y187.372
G0 X109.400 Y179.600
G1 F1800.000 X123.100 Y179.600 E19.26409
G1 X123.100 Y148.900 E19.84158
G1 X109.400 Y148.900 E20.09928
G1 X109.400 Y179.600 E20.67676
G0 F7200.00000 X109.330 Y179.670
G0 X131.830 Y179.670
G0 X131.900 Y179.600
G1 F1800.000 X145.600 Y179.600 E20.93447
G1 X145.600 Y148.900 E21.51195
G1 X131.900 Y148.900 E21.76966
G1 X131.900 Y179.600 E22.34714
G0 F7200.00000 X131.830 Y179.670
G0 X145.628 Y179.628
G0 X162.115 Y172.281
G1 F1800.000 X162.390 Y173.411 E22.36902
G1 X162.762 Y174.489 E22.39047
G1 X163.245 Y175.546 E22.41233
G1 X163.821 Y176.542 E22.43397
G1 X164.489 Y177.480 E22.45563
G1 X165.245 Y178.353 E22.47736
G1 X166.077 Y179.147 E22.49899
G1 X166.980 Y179.857 E22.52060
G1 X167.947 Y180.478 E22.54222
G1 X168.971 Y181.006 E22.56389
G1 X170.038 Y181.433 E22.58551
G1 X171.148 Y181.759 E22.60727
G1 X172.283 Y181.977 E22.62901
G1 X173.421 Y182.086 E22.65051
G1 X174.578 Y182.086 E22.67228
G1 X175.716 Y181.977 E22.69378
G1 X176.851 Y181.759 E22.71552
G1 X177.961 Y181.433 E22.73728
G1 X179.028 Y181.006 E22.75890
G1 X180.053 Y180.478 E22.78059
G1 X181.019 Y179.857 E22.80219
G1 X181.922 Y179.147 E22.82380
G1 X182.754 Y178.353 E22.84543
G1 X183.510 Y177.480 E22.86715
G1 X184.178 Y176.542 E22.88882
G1 X184.754 Y175.546 E22.91046
G1 X185.237 Y174.489 E22.93232
G1 X185.609 Y173.411 E22.95377
G1 X185.884 Y172.281 E22.97565
G1 X186.044 Y171.155 E22.99704
G1 X186.101 Y170.000 E23.01879
G1 X186.044 Y168.841 E23.04062
G1 X185.884 Y167.718 E23.06196
G1 X185.609 Y166.588 E23.08383
G1 X185.237 Y165.510 E23.10529
G1 X184.754 Y164.453 E23.12715
G1 X184.178 Y163.457 E23.14879
G1 X183.510 Y162.519 E23.17045
G1 X182.754 Y161.646 E23.19217
G1 X181.922 Y160.852 E23.21381
G1 X181.019 Y160.142 E23.23541
G1 X180.053 Y159.521 E23.25702
G1 X179.028 Y158.993 E23.27870
G1 X177.961 Y158.566 E23.30032
G1 X176.851 Y158.240 E23.32208
G1 X175.716 Y158.022 E23.34382
G1 X174.578 Y157.913 E23.36533
G1 X173.421 Y157.913 E23.38709
G1 X172.283 Y158.022 E23.40860
G1 X171.148 Y158.240 E23.43034
G1 X170.038 Y158.566 E23.45210
G1 X168.971 Y158.993 E23.47372
G1 X167.947 Y159.521 E23.49539
G1 X166.980 Y160.142 E23.51701
G1 X166.077 Y160.852 E23.53861
G1 X165.245 Y161.646 E23.56025
G1 X164.489 Y162.519 E23.58197
G1 X163.821 Y163.457 E23.60363
G1 X163.245 Y164.453 E23.62528
G1 X162.762 Y165.510 E23.64714
G1 X162.390 Y166.588 E23.66859
G1 X162.115 Y167.718 E23.69046
G1 X161.955 Y168.841 E23.71180
G1 X161.899 Y170.000 E23.73363
G1 X161.955 Y171.155 E23.75538
G1 X162.115 Y172.281 E23.77677
G0 F7200.00000 X162.017 Y172.299
G0 X145.670 Y140.170
G0 X145.600 Y140.100
G1 F1800.000 X145.600 Y109.400 E24.35426
G1 X131.900 Y109.400 E24.61196
G1 X131.900 Y140.100 E25.18945
G1 X145.600 Y140.100 E25.44715
G0 F7200.00000 X145.670 Y140.170
G0 X123.170 Y140.170
G0 X123.100 Y140.100
G1 F1800.000 X123.100 Y109.400 E26.02463
G1 X109.400 Y109.400 E26.28234
G1 X109.400 Y140.100 E26.85982
G1 X123.100 Y140.100 E27.11753
G0 F7200.00000 X122.700 Y139.700
;TYPE:WALL-OUTER
G1 F1800.000 X122.700 Y109.800 E27.67996
G1 X109.800 Y109.800 E27.92262
G1 X109.800 Y139.700 E28.48506
G1 X122.700 Y139.700 E28.72771
G0 F7200.00000 X122.700 Y140.200
G0 X122.700 Y148.800
G0 X122.700 Y149.300
G1 F1800.000 X109.800 Y149.300 E28.97037
G1 X109.800 Y179.200 E29.53280
G1 X122.700 Y179.200 E29.77546
G1 X122.700 Y149.300 E30.33789
G0 F7200.00000 X122.700 Y148.800
G0 X132.300 Y148.800
G0 X132.300 Y149.300
G1 F1800.000 X132.300 Y179.200 E30.90033
G1 X145.200 Y179.200 E31.14299
G1 X145.200 Y149.300 E31.70542
G1 X132.300 Y149.300 E31.94808
G0 F7200.00000 X132.300 Y148.800
G0 X131.800 Y139.700
G0 X132.300 Y139.700
G1 F1800.000 X145.200 Y139.700 E32.19073
G1 X145.200 Y109.800 E32.75317
G1 X132.300 Y109.800 E32.99583
G1 X132.300 Y139.700 E33.55826
G0 F7200.00000 X131.800 Y139.700
G0 X131.872 Y140.128
G0 X145.628 Y148.872
G0 X164.803 Y162.767
G1 F1800.000 X164.157 Y163.674 E33.57921
G1 X163.600 Y164.638 E33.60015
G1 X163.137 Y165.651 E33.62110
G1 X162.773 Y166.704 E33.64206
G1 X162.510 Y167.785 E33.66299
G1 X162.353 Y168.887 E33.68393
G1 X162.300 Y170.000 E33.70489
G1 X162.353 Y171.112 E33.72583
G1 X162.510 Y172.214 E33.74677
G1 X162.773 Y173.295 E33.76769
G1 X163.137 Y174.348 E33.78865
G1 X163.600 Y175.361 E33.80960
G1 X164.157 Y176.325 E33.83054
G1 X164.803 Y177.232 E33.85149
G1 X165.532 Y178.073 E33.87243
G1 X166.338 Y178.842 E33.89338
G1 X167.213 Y179.530 E33.91432
G1 X168.150 Y180.132 E33.93527
G1 X169.139 Y180.642 E33.95620
G1 X170.173 Y181.056 E33.97715
G1 X171.241 Y181.370 E33.99809
G1 X172.335 Y181.580 E34.01905
G1 X173.442 Y181.686 E34.03996
G1 X174.557 Y181.686 E34.06094
G1 X175.664 Y181.580 E34.08186
G1 X176.758 Y181.370 E34.10281
G1 X177.826 Y181.056 E34.12375
G1 X178.860 Y180.642 E34.14470
G1 X179.850 Y180.132 E34.16565
G1 X180.786 Y179.530 E34.18658
G1 X181.661 Y178.842 E34.20752
G1 X182.467 Y178.073 E34.22848
G1 X183.196 Y177.232 E34.24941
G1 X183.842 Y176.325 E34.27036
G1 X184.399 Y175.361 E34.29130
G1 X184.862 Y174.348 E34.31225
G1 X185.226 Y173.295 E34.33321
G1 X185.489 Y172.214 E34.35414
G1 X185.646 Y171.112 E34.37508
G1 X185.700 Y170.000 E34.39602
G1 X185.646 Y168.887 E34.41698
G1 X185.489 Y167.785 E34.43792
G1 X185.226 Y166.704 E34.45884
G1 X184.862 Y165.651 E34.47980
G1 X184.399 Y164.638 E34.50075
G1 X183.842 Y163.674 E34.52170
G1 X183.196 Y162.767 E34.54264
G1 X182.467 Y161.926 E34.56358
G1 X181.661 Y161.157 E34.58453
G1 X180.786 Y160.469 E34.60547
G1 X179.850 Y159.867 E34.62640
G1 X178.860 Y159.357 E34.64735
G1 X177.826 Y158.943 E34.66830
G1 X176.758 Y158.629 E34.68924
G1 X175.664 Y158.419 E34.71020
G1 X174.557 Y158.313 E34.73112
G1 X173.442 Y158.313 E34.75209
G1 X172.335 Y158.419 E34.77301
G1 X171.241 Y158.629 E34.79396
G1 X170.173 Y158.943 E34.81490
G1 X169.139 Y159.357 E34.83586
G1 X168.150 Y159.867 E34.85679
G1 X167.213 Y160.469 E34.87774
G1 X166.338 Y161.157 E34.89867
G1 X165.532 Y161.926 E34.91963
G1 X164.803 Y162.767 E34.94057
G0 F7200.00000 X164.426 Y162.441
G0 X163.210 Y164.435
G0 X162.725 Y165.496
G0 X162.352 Y166.577
G0 X162.076 Y167.711
G0 X161.916 Y168.838
G0 X161.859 Y170.000
G0 X161.916 Y171.158
G0 X162.076 Y172.288
G0 X162.352 Y173.422
G0 X162.725 Y174.503
G0 X163.210 Y175.564
G0 X163.788 Y176.563
G0 X164.458 Y177.504
G0 X165.217 Y178.380
G0 X166.051 Y179.177
G0 X166.957 Y179.889
G0 X199.800 Y199.800
G1 F1800.000 X112.200 Y199.800 E36.58837
G1 X112.200 Y187.800 E36.81410
G1 X100.200 Y187.800 E37.03982
G1 X100.200 Y100.200 E38.68763
G1 X187.800 Y100.200 E40.33543
G1 X187.800 Y112.200 E40.56116
G1 X199.800 Y112.200 E40.78689
G1 X199.800 Y199.800 E42.43469
G0 F7200.00000 X199.199 Y199.199
;TYPE:SKIN
G1 F1800.000 X180.455 Y180.455 E42.93332
G0 F7200.00000 X180.800 Y180.235
G1 F1800.000 X199.199 Y198.634 E43.42277
G0 F7200.00000 X199.199 Y198.068
G1 F1800.000 X181.144 Y180.013 E43.90308
G0 F7200.00000 X181.461 Y179.764
G1 F1800.000 X199.199 Y197.502 E44.37494
G0 F7200.00000 X199.199 Y196.937
G1 F1800.000 X181.777 Y179.514 E44.83842
G0 F7200.00000 X182.090 Y179.262
G1 F1800.000 X199.199 Y196.371 E45.29356
G0 F7200.00000 X199.199 Y195.805
G1 F1800.000 X182.379 Y178.985 E45.74100
G0 F7200.00000 X182.669 Y178.709
G1 F1800.000 X199.199 Y195.239 E46.18074
