;FLAVOR:RepRap
M190 S110.000000
M104 S245.000000
M109 S245.000000
G21 ;metric values
G90 ;absolute positioning
M82 ;set extruder to absolute mode
M107 ;start with the fan off
G28 X0 Y0 ;move X/Y to min endstops
G28 Z0 ;move Z to min endstops
G1 Z15.0 F9000 ;move the platform down 15mm
G92 E0 ;zero the extruded length
G1 F200 E3 ;extrude 3mm of feed stock
G92 E0 ;zero the extruded length again
G1 F9000
;Put printing message on LCD screen
M117 Printing...
;Generated with Cura_SteamEngine master
;LAYER_COUNT:158
;LAYER:0
M107
G0 F7200.000000 X99.430 Y80.760 Z0.300
G0 X102.806 Y78.243
;TYPE:SKIRT
G1 F1800.000 X103.337 Y78.033 E0.01074
G1 X103.441 Y77.996 E0.01282
G1 X103.842 Y77.875 E0.02070
G1 X104.142 Y77.800 E0.02651
G1 X104.288 Y77.768 E0.02932
G1 X104.582 Y77.712 E0.03495
G1 X104.741 Y77.686 E0.03799
G1 X104.947 Y77.657 E0.04190
G1 X105.116 Y77.639 E0.04510
G1 X105.607 Y77.609 E0.05435
G1 X105.820 Y77.603 E0.05836
G1 X106.098 Y77.600 E0.06359
G1 X113.724 Y77.600 E0.20704
G1 X114.422 Y77.610 E0.22017
G1 X114.836 Y77.639 E0.22797
G1 X115.160 Y77.672 E0.23410
G1 X115.165 Y77.672 E0.23419
G1 X115.390 Y77.708 E0.23848
G1 X115.546 Y77.737 E0.24146
G1 X115.902 Y77.814 E0.24832
G1 X116.048 Y77.851 E0.25115
G1 X116.373 Y77.941 E0.25749
G1 X116.529 Y77.990 E0.26057
G1 X116.775 Y78.075 E0.26546
G1 X116.984 Y78.153 E0.26966
G1 X117.027 Y78.171 E0.27054
G1 X117.680 Y78.462 E0.28399
G1 X117.867 Y78.552 E0.28789
G1 X118.340 Y78.808 E0.29801
G1 X118.449 Y78.873 E0.30039
G1 X118.602 Y78.971 E0.30381
G1 X118.899 Y79.172 E0.31056
G1 X118.936 Y79.199 E0.31142
G1 X119.242 Y79.431 E0.31864
G1 X119.552 Y79.692 E0.32626
G1 X119.589 Y79.725 E0.32720
G1 X119.882 Y79.998 E0.33473
G1 X120.161 Y80.285 E0.34226
G1 X120.392 Y80.544 E0.34879
G1 X120.453 Y80.617 E0.35058
G1 X120.678 Y80.900 E0.35738
G1 X120.753 Y80.999 E0.35971
G1 X120.964 Y81.296 E0.36657
G1 X121.074 Y81.467 E0.37039
G1 X121.267 Y81.805 E0.37771
G1 X121.509 Y82.268 E0.38754
G1 X121.649 Y82.559 E0.39362
G1 X121.751 Y82.792 E0.39840
G1 X121.962 Y83.326 E0.40920
G1 X122.000 Y83.431 E0.41130
G1 X122.125 Y83.843 E0.41940
G1 X122.195 Y84.124 E0.42485
G1 X122.232 Y84.289 E0.42803
G1 X122.288 Y84.583 E0.43366
G1 X122.313 Y84.732 E0.43650
G1 X122.341 Y84.939 E0.44043
G1 X122.361 Y85.117 E0.44380
G1 X122.390 Y85.593 E0.45277
G1 X122.397 Y85.821 E0.45706
G1 X122.400 Y86.047 E0.46131
G1 X122.384 Y87.553 E0.48964
G1 X122.383 Y92.630 E0.58514
G1 X122.395 Y94.047 E0.61180
G1 X122.390 Y94.423 E0.61887
G1 X122.361 Y94.837 E0.62668
G1 X122.328 Y95.161 E0.63280
G1 X122.328 Y95.166 E0.63290
G1 X122.292 Y95.391 E0.63718
G1 X122.232 Y95.716 E0.64340
G1 X122.132 Y96.136 E0.65152
G1 X122.055 Y96.398 E0.65666
G1 X121.980 Y96.616 E0.66100
G1 X121.680 Y97.375 E0.67635
G1 X121.256 Y98.223 E0.69418
G1 X121.195 Y98.337 E0.69661
G1 X121.129 Y98.447 E0.69903
G1 X121.029 Y98.603 E0.70251
G1 X120.837 Y98.887 E0.70896
G1 X120.801 Y98.937 E0.71012
G1 X120.568 Y99.245 E0.71738
G1 X120.315 Y99.545 E0.72477
G1 X120.275 Y99.590 E0.72590
G1 X119.997 Y99.888 E0.73357
G1 X119.722 Y100.155 E0.74078
G1 X119.419 Y100.423 E0.74838
G1 X119.396 Y100.443 E0.74896
G1 X119.066 Y100.706 E0.75690
G1 X119.022 Y100.739 E0.75793
G1 X118.736 Y100.943 E0.76454
G1 X118.721 Y100.953 E0.76488
G1 X117.988 Y101.385 E0.78088
G1 X117.909 Y101.428 E0.78257
G1 X117.510 Y101.621 E0.79091
G1 X117.238 Y101.742 E0.79651
G1 X116.925 Y101.872 E0.80289
G1 X116.564 Y102.002 E0.81010
G1 X116.138 Y102.131 E0.81848
G1 X115.823 Y102.209 E0.82458
G1 X115.726 Y102.230 E0.82645
G1 X115.368 Y102.298 E0.83330
G1 X115.315 Y102.307 E0.83431
G1 X115.052 Y102.343 E0.83931
G1 X114.883 Y102.361 E0.84250
G1 X114.392 Y102.391 E0.85176
G1 X114.179 Y102.397 E0.85577
G1 X114.127 Y102.398 E0.85674
G1 X113.852 Y102.394 E0.86192
G1 X112.437 Y102.384 E0.88853
G1 X107.313 Y102.384 E0.98492
G1 X105.990 Y102.396 E1.00981
G1 X105.577 Y102.390 E1.01758
G1 X105.163 Y102.361 E1.02538
G1 X104.839 Y102.328 E1.03151
G1 X104.834 Y102.328 E1.03160
G1 X104.609 Y102.292 E1.03589
G1 X104.264 Y102.228 E1.04249
G1 X103.895 Y102.141 E1.04962
G1 X103.594 Y102.053 E1.05552
G1 X103.370 Y101.978 E1.05996
G1 X102.612 Y101.675 E1.07532
G1 X102.066 Y101.403 E1.08679
G1 X101.516 Y101.102 E1.09859
G1 X101.326 Y100.981 E1.10282
G1 X101.194 Y100.892 E1.10582
G1 X100.976 Y100.736 E1.11086
G1 X100.759 Y100.570 E1.11600
G1 X100.420 Y100.285 E1.12433
G1 X100.120 Y100.005 E1.13205
G1 X99.844 Y99.722 E1.13949
G1 X99.571 Y99.414 E1.14723
G1 X99.557 Y99.397 E1.14764
G1 X99.282 Y99.051 E1.15596
G1 X99.261 Y99.023 E1.15662
G1 X99.057 Y98.737 E1.16322
G1 X99.047 Y98.722 E1.16356
G1 X98.612 Y97.984 E1.17968
G1 X98.572 Y97.910 E1.18126
G1 X98.379 Y97.511 E1.18960
G1 X98.254 Y97.231 E1.19536
G1 X98.128 Y96.926 E1.20157
G1 X97.998 Y96.565 E1.20879
G1 X97.869 Y96.139 E1.21716
G1 X97.791 Y95.824 E1.22327
G1 X97.766 Y95.706 E1.22554
G1 X97.702 Y95.369 E1.23199
G1 X97.690 Y95.295 E1.23340
G1 X97.657 Y95.053 E1.23799
G1 X97.639 Y94.884 E1.24119
G1 X97.609 Y94.393 E1.25044
G1 X97.603 Y94.180 E1.25445
G1 X97.600 Y93.902 E1.25968
G1 X97.600 Y86.276 E1.40313
G1 X97.610 Y85.578 E1.41626
G1 X97.639 Y85.164 E1.42407
G1 X97.672 Y84.835 E1.43029
G1 X97.674 Y84.822 E1.43053
G1 X97.708 Y84.609 E1.43459
G1 X97.772 Y84.265 E1.44117
G1 X97.859 Y83.896 E1.44831
G1 X97.947 Y83.595 E1.45420
G1 X98.022 Y83.371 E1.45865
G1 X98.325 Y82.613 E1.47400
G1 X98.597 Y82.067 E1.48548
G1 X98.898 Y81.517 E1.49727
G1 X99.019 Y81.327 E1.50151
G1 X99.108 Y81.195 E1.50450
G1 X99.264 Y80.977 E1.50955
G1 X99.430 Y80.760 E1.51469
G1 X99.715 Y80.421 E1.52302
G1 X99.992 Y80.125 E1.53064
G1 X100.286 Y79.838 E1.53837
G1 X100.545 Y79.607 E1.54490
G1 X100.616 Y79.547 E1.54665
G1 X100.901 Y79.320 E1.55350
G1 X101.006 Y79.241 E1.55597
G1 X101.295 Y79.036 E1.56264
G1 X101.468 Y78.925 E1.56650
G1 X101.806 Y78.732 E1.57383
G1 X102.267 Y78.491 E1.58361
G1 X102.558 Y78.351 E1.58968
G1 X102.806 Y78.243 E1.59477
G0 F7200.00000 X106.002 Y78.000
G1 F1800.000 X113.724 Y78.000 E1.74003
G1 X114.417 Y78.010 E1.75307
G1 X114.785 Y78.036 E1.76000
G1 X115.104 Y78.068 E1.76604
G1 X115.332 Y78.104 E1.77038
G1 X115.450 Y78.126 E1.77264
G1 X115.839 Y78.210 E1.78012
G1 X115.954 Y78.239 E1.78235
G1 X116.238 Y78.319 E1.78790
G1 X116.422 Y78.377 E1.79153
G1 X116.643 Y78.453 E1.79593
G1 X116.849 Y78.530 E1.80006
G1 X116.856 Y78.533 E1.80021
G1 X117.509 Y78.824 E1.81366
G1 X117.689 Y78.911 E1.81742
G1 X118.133 Y79.150 E1.82690
G1 X118.269 Y79.232 E1.82989
G1 X118.358 Y79.289 E1.83188
G1 X118.665 Y79.496 E1.83884
G1 X118.709 Y79.528 E1.83986
G1 X118.989 Y79.741 E1.84648
G1 X119.309 Y80.011 E1.85436
G1 X119.605 Y80.287 E1.86197
G1 X119.866 Y80.555 E1.86901
G1 X120.094 Y80.812 E1.87547
G1 X120.158 Y80.888 E1.87734
G1 X120.354 Y81.133 E1.88324
G1 X120.410 Y81.207 E1.88499
G1 X120.618 Y81.500 E1.89175
G1 X121.012 Y82.164 E1.90627
G1 X121.034 Y82.203 E1.90711
G1 X121.255 Y82.663 E1.91671
G1 X121.430 Y83.064 E1.92494
G1 X121.578 Y83.439 E1.93252
G1 X121.627 Y83.577 E1.93528
G1 X121.737 Y83.940 E1.94241
G1 X121.814 Y84.249 E1.94840
G1 X121.839 Y84.363 E1.95060
G1 X121.895 Y84.653 E1.95616
G1 X121.915 Y84.771 E1.95841
G1 X121.946 Y84.998 E1.96272
G1 X121.963 Y85.155 E1.96569
G1 X121.991 Y85.620 E1.97445
G1 X121.999 Y85.867 E1.97910
G1 X122.000 Y85.971 E1.98106
G1 X121.984 Y87.553 E2.01081
G1 X121.983 Y92.600 E2.10575
G1 X121.995 Y94.054 E2.13310
G1 X121.990 Y94.418 E2.13995
G1 X121.964 Y94.786 E2.14689
G1 X121.932 Y95.105 E2.15292
G1 X121.896 Y95.333 E2.15726
G1 X121.838 Y95.647 E2.16327
G1 X121.751 Y96.009 E2.17027
G1 X121.668 Y96.292 E2.17582
G1 X121.600 Y96.495 E2.17985
G1 X121.321 Y97.201 E2.19413
G1 X120.910 Y98.024 E2.21143
G1 X120.858 Y98.120 E2.21349
G1 X120.766 Y98.274 E2.21686
G1 X120.711 Y98.359 E2.21876
G1 X120.504 Y98.666 E2.22573
G1 X120.472 Y98.710 E2.22675
G1 X120.259 Y98.990 E2.23337
G1 X119.989 Y99.310 E2.24125
G1 X119.708 Y99.611 E2.24899
G1 X119.453 Y99.859 E2.25568
G1 X119.151 Y100.127 E2.26328
G1 X119.121 Y100.152 E2.26401
G1 X118.839 Y100.377 E2.27080
G1 X118.803 Y100.404 E2.27164
G1 X118.501 Y100.619 E2.27862
G1 X117.818 Y101.022 E2.29354
G1 X117.722 Y101.074 E2.29559
G1 X117.349 Y101.254 E2.30338
G1 X117.070 Y101.379 E2.30913
G1 X116.790 Y101.495 E2.31483
G1 X116.419 Y101.629 E2.32225
G1 X116.057 Y101.738 E2.32936
G1 X116.050 Y101.740 E2.32950
G1 X115.684 Y101.831 E2.33659
G1 X115.366 Y101.892 E2.34269
G1 X115.197 Y101.920 E2.34591
G1 X114.993 Y101.948 E2.34978
G1 X114.845 Y101.963 E2.35258
G1 X114.380 Y101.991 E2.36134
G1 X114.151 Y101.998 E2.36565
G1 X113.852 Y101.994 E2.37128
G1 X112.437 Y101.984 E2.39789
G1 X107.297 Y101.984 E2.49458
G1 X105.975 Y101.996 E2.51945
G1 X105.582 Y101.990 E2.52684
G1 X105.214 Y101.964 E2.53378
G1 X104.895 Y101.932 E2.53981
G1 X104.667 Y101.896 E2.54415
G1 X104.341 Y101.836 E2.55039
G1 X104.004 Y101.755 E2.55691
G1 X103.723 Y101.674 E2.56241
G1 X103.454 Y101.583 E2.56775
G1 X102.807 Y101.326 E2.58085
G1 X102.806 Y101.325 E2.58087
G1 X102.259 Y101.053 E2.59237
G1 X101.707 Y100.750 E2.60421
G1 X101.556 Y100.654 E2.60758
G1 X101.406 Y100.553 E2.61098
G1 X101.246 Y100.438 E2.61468
G1 X100.991 Y100.244 E2.62071
G1 X100.699 Y99.998 E2.62789
G1 X100.390 Y99.710 E2.63584
G1 X100.147 Y99.461 E2.64238
G1 X99.868 Y99.146 E2.65030
G1 X99.848 Y99.122 E2.65089
G1 X99.623 Y98.840 E2.65767
G1 X99.596 Y98.804 E2.65852
G1 X99.381 Y98.502 E2.66549
G1 X98.978 Y97.819 E2.68041
G1 X98.926 Y97.723 E2.68246
G1 X98.746 Y97.350 E2.69025
G1 X98.621 Y97.071 E2.69600
G1 X98.505 Y96.791 E2.70171
G1 X98.371 Y96.420 E2.70913
G1 X98.262 Y96.058 E2.71624
G1 X98.258 Y96.043 E2.71653
G1 X98.169 Y95.685 E2.72347
G1 X98.103 Y95.339 E2.73009
G1 X98.080 Y95.196 E2.73282
G1 X98.052 Y94.994 E2.73665
G1 X98.036 Y94.843 E2.73951
G1 X98.008 Y94.365 E2.74852
G1 X98.001 Y94.134 E2.75287
G1 X98.000 Y93.998 E2.75542
G1 X98.000 Y86.276 E2.90068
G1 X98.010 Y85.583 E2.91372
G1 X98.036 Y85.215 E2.92066
G1 X98.068 Y84.896 E2.92669
G1 X98.104 Y84.668 E2.93103
G1 X98.164 Y84.342 E2.93726
G1 X98.245 Y84.005 E2.94378
G1 X98.326 Y83.724 E2.94928
G1 X98.417 Y83.455 E2.95463
G1 X98.673 Y82.810 E2.96768
G1 X98.678 Y82.800 E2.96789
G1 X98.947 Y82.260 E2.97924
G1 X99.250 Y81.708 E2.99108
G1 X99.354 Y81.544 E2.99474
G1 X99.450 Y81.403 E2.99794
G1 X99.562 Y81.247 E3.00156
G1 X99.756 Y80.992 E3.00758
G1 X99.999 Y80.703 E3.01469
G1 X100.278 Y80.404 E3.02238
G1 X100.559 Y80.130 E3.02976
G1 X100.811 Y79.906 E3.03610
G1 X100.887 Y79.842 E3.03797
G1 X101.141 Y79.639 E3.04409
G1 X101.219 Y79.581 E3.04592
G1 X101.499 Y79.382 E3.05238
G1 X102.163 Y78.988 E3.06690
G1 X102.214 Y78.960 E3.06800
G1 X102.666 Y78.743 E3.07743
G1 X103.071 Y78.567 E3.08573
G1 X103.438 Y78.422 E3.09316
G1 X103.576 Y78.373 E3.09591
G1 X103.939 Y78.263 E3.10305
G1 X104.248 Y78.186 E3.10904
G1 X104.362 Y78.161 E3.11123
G1 X104.652 Y78.105 E3.11679
G1 X104.793 Y78.081 E3.11948
G1 X105.006 Y78.052 E3.12352
G1 X105.154 Y78.037 E3.12632
G1 X105.619 Y78.009 E3.13508
G1 X105.866 Y78.001 E3.13973
G1 X106.002 Y78.000 E3.14229
G0 F7200.00000 X106.027 Y78.400
G1 F1800.000 X113.724 Y78.400 E3.28708
G1 X114.423 Y78.410 E3.30023
G1 X114.739 Y78.432 E3.30618
G1 X115.040 Y78.462 E3.31187
G1 X115.257 Y78.496 E3.31601
G1 X115.395 Y78.522 E3.31865
G1 X115.726 Y78.594 E3.32502
G1 X115.850 Y78.625 E3.32742
G1 X116.126 Y78.703 E3.33282
G1 X116.278 Y78.750 E3.33581
G1 X116.441 Y78.806 E3.33905
G1 X117.147 Y79.100 E3.35344
G1 X117.777 Y79.414 E3.36668
G1 X117.940 Y79.502 E3.37016
G1 X118.124 Y79.612 E3.37420
G1 X118.355 Y79.768 E3.37944
G1 X118.506 Y79.877 E3.38294
G1 X118.753 Y80.063 E3.38876
G1 X119.033 Y80.299 E3.39565
G1 X119.331 Y80.579 E3.40334
G1 X119.571 Y80.825 E3.40980
G1 X119.803 Y81.086 E3.41637
G1 X119.844 Y81.134 E3.41756
G1 X120.029 Y81.366 E3.42314
G1 X120.108 Y81.471 E3.42561
G1 X120.296 Y81.736 E3.43173
G1 X120.650 Y82.334 E3.44480
G1 X120.681 Y82.391 E3.44602
G1 X120.713 Y82.452 E3.44731
G1 X120.916 Y82.872 E3.45609
G1 X120.977 Y83.007 E3.45888
G1 X121.126 Y83.365 E3.46617
G1 X121.247 Y83.704 E3.47294
G1 X121.351 Y84.046 E3.47966
G1 X121.426 Y84.346 E3.48548
G1 X121.444 Y84.427 E3.48704
G1 X121.506 Y84.745 E3.49314
G1 X121.518 Y84.824 E3.49464
G1 X121.550 Y85.058 E3.49908
G1 X121.568 Y85.218 E3.50211
G1 X121.591 Y85.599 E3.50929
G1 X121.598 Y85.832 E3.51368
G1 X121.600 Y85.975 E3.51637
G1 X121.584 Y87.553 E3.54605
G1 X121.583 Y92.610 E3.64118
G1 X121.596 Y94.028 E3.66785
G1 X121.590 Y94.424 E3.67530
G1 X121.568 Y94.736 E3.68118
G1 X121.538 Y95.041 E3.68695
G1 X121.504 Y95.258 E3.69108
G1 X121.446 Y95.568 E3.69701
G1 X121.363 Y95.912 E3.70367
G1 X121.339 Y95.995 E3.70529
G1 X121.135 Y96.579 E3.71693
G1 X120.964 Y97.010 E3.72565
G1 X120.519 Y97.904 E3.74444
G1 X120.507 Y97.927 E3.74493
G1 X120.388 Y98.125 E3.74927
G1 X120.236 Y98.350 E3.75438
G1 X120.130 Y98.499 E3.75782
G1 X119.937 Y98.754 E3.76383
G1 X119.701 Y99.034 E3.77072
G1 X119.420 Y99.334 E3.77845
G1 X119.183 Y99.564 E3.78467
G1 X118.924 Y99.794 E3.79118
G1 X118.838 Y99.866 E3.79329
G1 X118.579 Y100.072 E3.79952
G1 X118.282 Y100.283 E3.80637
G1 X117.626 Y100.671 E3.82071
G1 X117.551 Y100.712 E3.82231
G1 X117.120 Y100.920 E3.83132
G1 X116.963 Y100.991 E3.83456
G1 X116.658 Y101.118 E3.84077
G1 X116.301 Y101.246 E3.84791
G1 X116.284 Y101.252 E3.84825
G1 X115.950 Y101.353 E3.85481
G1 X115.596 Y101.440 E3.86167
G1 X115.273 Y101.502 E3.86785
G1 X115.168 Y101.520 E3.86986
G1 X114.933 Y101.552 E3.87432
G1 X114.782 Y101.568 E3.87717
G1 X114.401 Y101.591 E3.88435
G1 X114.168 Y101.598 E3.88874
G1 X114.159 Y101.598 E3.88891
G1 X113.852 Y101.594 E3.89468
G1 X112.437 Y101.584 E3.92130
G1 X107.283 Y101.584 E4.01825
G1 X105.992 Y101.596 E4.04254
G1 X105.576 Y101.590 E4.05036
G1 X105.260 Y101.568 E4.05632
G1 X104.959 Y101.538 E4.06201
G1 X104.742 Y101.504 E4.06614
G1 X104.434 Y101.446 E4.07204
G1 X104.097 Y101.366 E4.07855
G1 X103.835 Y101.290 E4.08368
G1 X103.644 Y101.225 E4.08748
G1 X103.189 Y101.044 E4.09669
G1 X102.753 Y100.849 E4.10568
G1 X102.398 Y100.672 E4.11314
G1 X101.902 Y100.400 E4.12378
G1 X101.797 Y100.334 E4.12611
G1 X101.653 Y100.237 E4.12938
G1 X101.454 Y100.094 E4.13399
G1 X101.251 Y99.940 E4.13878
G1 X100.959 Y99.693 E4.14597
G1 X100.680 Y99.433 E4.15315
G1 X100.428 Y99.175 E4.15993
G1 X100.202 Y98.920 E4.16634
G1 X100.134 Y98.839 E4.16833
G1 X99.928 Y98.580 E4.17456
G1 X99.717 Y98.283 E4.18141
G1 X99.329 Y97.627 E4.19574
G1 X99.284 Y97.544 E4.19752
G1 X99.080 Y97.121 E4.20635
G1 X99.009 Y96.964 E4.20960
G1 X98.882 Y96.659 E4.21581
G1 X98.754 Y96.302 E4.22294
G1 X98.748 Y96.285 E4.22328
G1 X98.647 Y95.951 E4.22985
G1 X98.560 Y95.597 E4.23670
G1 X98.498 Y95.274 E4.24289
G1 X98.480 Y95.169 E4.24490
G1 X98.448 Y94.934 E4.24936
G1 X98.432 Y94.783 E4.25221
G1 X98.409 Y94.393 E4.25956
G1 X98.402 Y94.169 E4.26378
G1 X98.400 Y93.944 E4.26801
G1 X98.400 Y86.276 E4.41225
G1 X98.410 Y85.569 E4.42555
G1 X98.432 Y85.261 E4.43136
G1 X98.462 Y84.960 E4.43705
G1 X98.496 Y84.743 E4.44118
G1 X98.554 Y84.435 E4.44708
G1 X98.634 Y84.098 E4.45359
G1 X98.710 Y83.836 E4.45872
G1 X98.775 Y83.645 E4.46252
G1 X98.956 Y83.190 E4.47173
G1 X99.151 Y82.754 E4.48071
G1 X99.328 Y82.399 E4.48817
G1 X99.600 Y81.903 E4.49882
G1 X99.666 Y81.798 E4.50115
G1 X99.772 Y81.641 E4.50471
G1 X99.919 Y81.437 E4.50944
G1 X100.060 Y81.252 E4.51382
G1 X100.307 Y80.960 E4.52101
G1 X100.573 Y80.674 E4.52836
G1 X100.822 Y80.431 E4.53490
G1 X101.086 Y80.196 E4.54155
G1 X101.137 Y80.153 E4.54281
G1 X101.367 Y79.970 E4.54833
G1 X101.470 Y79.892 E4.55076
G1 X101.735 Y79.704 E4.55688
G1 X102.335 Y79.349 E4.56999
G1 X102.399 Y79.314 E4.57136
G1 X102.461 Y79.282 E4.57268
G1 X102.871 Y79.084 E4.58124
G1 X103.010 Y79.021 E4.58411
G1 X103.364 Y78.874 E4.59132
G1 X103.703 Y78.753 E4.59809
G1 X104.046 Y78.649 E4.60483
G1 X104.345 Y78.574 E4.61063
G1 X104.446 Y78.552 E4.61258
G1 X104.744 Y78.494 E4.61829
G1 X104.823 Y78.482 E4.61979
G1 X105.066 Y78.448 E4.62441
G1 X105.217 Y78.432 E4.62726
G1 X105.598 Y78.409 E4.63444
G1 X105.831 Y78.402 E4.63883
G1 X106.027 Y78.400 E4.64251
G0 F7200.00000 X106.017 Y78.800
G1 F1800.000 X113.724 Y78.800 E4.78749
G1 X114.435 Y78.810 E4.80086
G1 X114.694 Y78.828 E4.80575
G1 X114.954 Y78.854 E4.81066
