;FLAVOR:UltiGCode
;TIME:666
;MATERIAL:666
;MATERIAL2:-1

;Generated with Cura_SteamEngine master
;LAYER_COUNT:148
;LAYER:0
M107
G0 F7200.000000 X112.743 Y110.246 Z0.300
G0 X115.457 Y109.300
;TYPE:SKIRT
G1 F1800.000 X197.736 Y109.300 E9.87348
G1 X200.564 Y109.260 E10.21287
G1 X203.747 Y109.119 E10.59521
G1 X203.901 Y109.110 E10.61372
G1 X204.147 Y109.102 E10.64326
G1 X204.357 Y109.100 E10.66846
G1 X214.493 Y109.100 E11.88478
G1 X215.199 Y109.110 E11.96951
G1 X215.356 Y109.117 E11.98836
G1 X215.673 Y109.146 E12.02656
G1 X215.695 Y109.149 E12.02923
G1 X215.706 Y109.151 E12.03057
G1 X215.856 Y109.182 E12.04895
G1 X216.161 Y109.261 E12.08676
G1 X216.208 Y109.274 E12.09261
G1 X216.339 Y109.324 E12.10944
G1 X216.650 Y109.459 E12.15012
G1 X216.654 Y109.460 E12.15061
G1 X216.682 Y109.475 E12.15443
G1 X216.784 Y109.534 E12.16857
G1 X217.073 Y109.718 E12.20968
G1 X217.074 Y109.719 E12.20985
G1 X217.081 Y109.724 E12.21088
G1 X217.230 Y109.845 E12.23391
G1 X217.454 Y110.043 E12.26979
G1 X217.480 Y110.069 E12.27420
G1 X217.561 Y110.159 E12.28873
G1 X217.779 Y110.425 E12.33000
G1 X217.788 Y110.436 E12.33171
G1 X217.799 Y110.451 E12.33394
G1 X217.876 Y110.571 E12.35105
G1 X218.050 Y110.869 E12.39246
G1 X218.055 Y110.877 E12.39359
G1 X218.113 Y111.009 E12.41089
G1 X218.241 Y111.337 E12.45314
G1 X218.245 Y111.348 E12.45455
G1 X218.279 Y111.478 E12.47067
G1 X218.341 Y111.765 E12.50591
G1 X218.389 Y112.275 E12.56738
G1 X218.398 Y112.547 E12.60004
G1 X218.400 Y112.706 E12.61912
G1 X218.400 Y122.893 E13.84156
G1 X218.390 Y123.599 E13.92629
G1 X218.347 Y124.621 E14.04903
G1 X218.278 Y125.904 E14.20322
G1 X218.200 Y129.844 E14.67611
G1 X218.200 Y211.793 E24.50999
G1 X218.190 Y212.499 E24.59472
G1 X218.183 Y212.656 E24.61358
G1 X218.154 Y212.973 E24.65178
G1 X218.151 Y212.995 E24.65444
G1 X218.150 Y213.004 E24.65553
G1 X218.121 Y213.143 E24.67257
G1 X218.039 Y213.461 E24.71197
G1 X218.030 Y213.495 E24.71619
G1 X218.027 Y213.505 E24.71745
G1 X217.976 Y213.639 E24.73465
G1 X217.845 Y213.942 E24.77426
G1 X217.840 Y213.954 E24.77582
G1 X217.829 Y213.974 E24.77856
G1 X217.766 Y214.084 E24.79378
G1 X217.582 Y214.373 E24.83489
G1 X217.576 Y214.382 E24.83619
G1 X217.455 Y214.530 E24.85913
G1 X217.257 Y214.754 E24.89500
G1 X217.231 Y214.780 E24.89941
G1 X217.147 Y214.856 E24.91301
G1 X216.860 Y215.091 E24.95752
G1 X216.858 Y215.093 E24.95786
G1 X216.848 Y215.099 E24.95926
G1 X216.729 Y215.176 E24.97627
G1 X216.433 Y215.349 E25.01741
G1 X216.427 Y215.353 E25.01827
G1 X216.416 Y215.358 E25.01972
G1 X216.283 Y215.416 E25.03714
G1 X215.960 Y215.542 E25.07874
G1 X215.961 Y215.542 E25.07886
G1 X215.942 Y215.548 E25.08125
G1 X215.822 Y215.579 E25.09612
G1 X215.535 Y215.641 E25.13136
G1 X215.019 Y215.689 E25.19355
G1 X214.999 Y215.690 E25.19595
G1 X214.753 Y215.698 E25.22549
G1 X214.543 Y215.700 E25.25069
G1 X127.707 Y215.700 E35.67101
G1 X125.937 Y215.675 E35.88343
G1 X125.539 Y215.663 E35.93121
G1 X122.295 Y215.664 E36.32049
G1 X115.598 Y215.775 E37.12424
G1 X114.838 Y215.777 E37.21544
G1 X114.719 Y215.773 E37.22973
G1 X114.712 Y215.773 E37.23057
G1 X114.350 Y215.745 E37.27414
G1 X114.189 Y215.714 E37.29381
G1 X113.861 Y215.635 E37.33430
G1 X113.696 Y215.575 E37.35537
G1 X113.397 Y215.451 E37.39421
G1 X113.364 Y215.434 E37.39866
G1 X113.251 Y215.371 E37.41419
G1 X112.964 Y215.195 E37.45459
G1 X112.958 Y215.191 E37.45545
G1 X112.949 Y215.184 E37.45682
G1 X112.830 Y215.091 E37.47495
G1 X112.566 Y214.865 E37.51665
G1 X112.562 Y214.861 E37.51733
G1 X112.463 Y214.754 E37.53482
G1 X112.235 Y214.484 E37.57723
G1 X112.161 Y214.374 E37.59314
G1 X111.971 Y214.059 E37.63728
G1 X111.891 Y213.885 E37.66026
G1 X111.775 Y213.600 E37.69719
G1 X111.771 Y213.589 E37.69859
G1 X111.737 Y213.469 E37.71356
G1 X111.653 Y213.106 E37.75827
G1 X111.635 Y212.946 E37.77759
G1 X111.610 Y212.587 E37.82077
G1 X111.607 Y212.500 E37.83122
G1 X111.600 Y211.920 E37.90083
G1 X111.600 Y202.107 E39.07839
G1 X111.610 Y201.400 E39.16323
G1 X111.653 Y200.379 E39.28586
G1 X111.722 Y199.096 E39.44004
G1 X111.800 Y195.156 E39.91294
G1 X111.800 Y113.201 E49.74754
G1 X111.810 Y112.500 E49.83167
G1 X111.817 Y112.336 E49.85136
G1 X111.846 Y112.027 E49.88861
G1 X111.850 Y111.996 E49.89236
G1 X111.851 Y111.994 E49.89263
G1 X111.882 Y111.844 E49.91101
G1 X111.965 Y111.523 E49.95079
G1 X111.974 Y111.492 E49.95467
G1 X112.024 Y111.361 E49.97149
G1 X112.160 Y111.047 E50.01256
G1 X112.175 Y111.018 E50.01647
G1 X112.234 Y110.916 E50.03061
G1 X112.425 Y110.617 E50.07319
G1 X112.545 Y110.470 E50.09596
G1 X112.743 Y110.246 E50.13184
G1 X112.769 Y110.220 E50.13625
G1 X112.859 Y110.139 E50.15078
G1 X113.140 Y109.909 E50.19435
G1 X113.142 Y109.907 E50.19469
G1 X113.152 Y109.901 E50.19609
G1 X113.271 Y109.824 E50.21310
G1 X113.574 Y109.647 E50.25521
G1 X113.587 Y109.641 E50.25693
G1 X113.717 Y109.584 E50.27396
G1 X114.040 Y109.458 E50.31557
G1 X114.039 Y109.458 E50.31569
G1 X114.058 Y109.452 E50.31808
G1 X114.178 Y109.421 E50.33295
G1 X114.465 Y109.359 E50.36819
G1 X114.981 Y109.311 E50.43037
G1 X115.001 Y109.310 E50.43278
G1 X115.247 Y109.302 E50.46231
G1 X115.457 Y109.300 E50.48751
G0 F7200.00000 X204.528 Y110.972
G0 X203.900 Y112.300
;TYPE:SUPPORT
G1 F1800.000 X215.200 Y112.300 E51.84351
G1 X215.200 Y123.600 E53.19951
G1 X203.900 Y123.600 E54.55551
G1 X203.900 Y112.300 E55.91151
G0 F7200.00000 X204.600 Y112.300
G0 X207.001 Y117.490
G1 F1800.000 X206.415 Y117.705 E55.98642
G1 X205.859 Y118.036 E56.06406
G1 X205.433 Y118.528 E56.14216
G1 X205.174 Y118.976 E56.20426
G1 X204.971 Y119.646 E56.28827
G1 X204.971 Y120.299 E56.36663
G1 X205.112 Y120.910 E56.44187
G1 X205.426 Y121.479 E56.51986
G1 X205.852 Y121.942 E56.59536
G1 X206.414 Y122.305 E56.67564
G1 X207.007 Y122.502 E56.75063
G1 X207.639 Y122.535 E56.82657
G1 X208.319 Y122.429 E56.90916
G1 X208.900 Y122.125 E56.98784
G1 X209.384 Y121.727 E57.06304
G1 X209.738 Y121.204 E57.13882
G1 X209.987 Y120.594 E57.21789
G1 X210.040 Y119.905 E57.30081
G1 X209.953 Y119.296 E57.37463
G1 X209.721 Y118.761 E57.44461
G1 X209.330 Y118.236 E57.52316
G1 X208.841 Y117.841 E57.59860
G1 X208.325 Y117.591 E57.66740
G1 X207.702 Y117.459 E57.74382
G1 X207.001 Y117.490 E57.82802
G0 F7200.00000 X207.480 Y117.509
G1 F1800.000 X207.480 Y112.260 E58.45790
G0 F7200.00000 X212.800 Y112.260
G1 F1800.000 X212.800 Y123.640 E59.82350
G0 F7200.00000 X212.800 Y122.900
G0 X215.240 Y122.360
G1 F1800.000 X208.364 Y122.360 E60.64862
G0 F7200.00000 X207.480 Y122.487
G1 F1800.000 X207.480 Y123.640 E60.78698
G0 F7200.00000 X206.711 Y122.360
G1 F1800.000 X203.860 Y122.360 E61.12910
G0 F7200.00000 X204.600 Y122.360
G0 X204.600 Y117.040
G0 X203.860 Y117.040
G1 F1800.000 X215.240 Y117.040 E62.49470
G10
G0 F7200.00000 X208.971 Y122.973
G0 X158.470 Y170.782
G0 X149.029 Y179.719
G0 X126.100 Y201.400
G11
G1 F1800.000 X126.100 Y212.401 E63.81482
G1 X114.800 Y212.587 E65.17101
G1 X114.800 Y201.400 E66.51345
G1 X126.100 Y201.400 E67.86945
G0 F7200.00000 X125.570 Y201.930
G0 X125.510 Y202.159
G0 X124.953 Y204.296
G1 F1800.000 X124.721 Y203.761 E67.93942
G1 X124.330 Y203.236 E68.01798
G1 X123.841 Y202.841 E68.09341
G1 X123.325 Y202.591 E68.16221
G1 X122.702 Y202.459 E68.23863
G1 X122.001 Y202.490 E68.32283
G1 X121.415 Y202.705 E68.39774
G1 X120.859 Y203.036 E68.47539
G1 X120.433 Y203.528 E68.55348
G1 X120.174 Y203.976 E68.61558
G1 X119.971 Y204.646 E68.69959
G1 X119.971 Y205.299 E68.77795
G1 X120.112 Y205.910 E68.85320
G1 X120.426 Y206.479 E68.93118
G1 X120.852 Y206.942 E69.00668
G1 X121.414 Y207.305 E69.08697
G1 X122.007 Y207.502 E69.16195
G1 X122.639 Y207.535 E69.23789
G1 X123.319 Y207.429 E69.32048
G1 X123.900 Y207.125 E69.39917
G1 X124.384 Y206.727 E69.47436
G1 X124.738 Y206.204 E69.55015
G1 X124.987 Y205.594 E69.62921
G1 X125.040 Y204.905 E69.71214
G1 X124.953 Y204.296 E69.78596
G0 F7200.00000 X125.400 Y202.160
G0 X126.139 Y202.160
G1 F1800.000 X114.759 Y202.160 E71.15156
G0 F7200.00000 X117.040 Y202.100
G0 X117.040 Y201.360
G1 F1800.000 X117.040 Y212.591 E72.49928
G0 F7200.00000 X122.360 Y212.503
G1 F1800.000 X122.360 Y207.481 E73.10192
G0 F7200.00000 X122.353 Y207.480
G1 F1800.000 X114.759 Y207.480 E74.01320
G0 F7200.00000 X122.731 Y207.480
G1 F1800.000 X126.139 Y207.480 E74.42216
G0 F7200.00000 X125.400 Y207.480
G0 X122.360 Y202.515
G1 F1800.000 X122.360 Y201.360 E74.56076
G10
G0 F7200.00000 X122.360 Y202.100
G0 X122.360 Y202.040
G0 X122.360 Y199.860
G0 X127.670 Y199.830
G0 X127.600 Y199.900
;TYPE:WALL-INNER
G11
G1 F1800.000 X115.600 Y199.900 E76.00076
G1 X115.600 Y113.100 E86.41676
G1 X202.400 Y113.100 E96.83276
G1 X202.400 Y125.100 E98.27276
G1 X214.400 Y125.100 E99.71276
G1 X214.400 Y211.900 E110.12876
G1 X127.600 Y211.900 E120.54476
G1 X127.600 Y199.900 E121.98476
G0 F7200.00000 X127.670 Y199.830
G0 X124.330 Y192.170
G0 X124.400 Y192.100
G1 F1800.000 X138.100 Y192.100 E123.62876
G1 X138.100 Y161.400 E127.31276
G1 X124.400 Y161.400 E128.95676
G1 X124.400 Y192.100 E132.64076
G0 F7200.00000 X124.330 Y192.170
G0 X146.830 Y192.170
G0 X146.900 Y192.100
G1 F1800.000 X160.600 Y192.100 E134.28476
G1 X160.600 Y161.400 E137.96876
G1 X146.900 Y161.400 E139.61276
G1 X146.900 Y192.100 E143.29676
G0 F7200.00000 X146.830 Y192.170
G0 X160.628 Y192.128
G0 X177.115 Y184.781
G1 F1800.000 X177.390 Y185.911 E143.43631
G1 X177.762 Y186.989 E143.57316
G1 X178.245 Y188.046 E143.71262
G1 X178.821 Y189.042 E143.85068
G1 X179.489 Y189.980 E143.98887
G1 X180.245 Y190.853 E144.12745
G1 X181.077 Y191.647 E144.26546
G1 X181.980 Y192.357 E144.40330
G1 X182.947 Y192.978 E144.54121
G1 X183.971 Y193.506 E144.67946
G1 X185.038 Y193.933 E144.81738
G1 X186.148 Y194.259 E144.95620
G1 X187.283 Y194.477 E145.09489
G1 X188.421 Y194.586 E145.23208
G1 X189.578 Y194.586 E145.37092
G1 X190.716 Y194.477 E145.50810
G1 X191.851 Y194.259 E145.64679
G1 X192.961 Y193.933 E145.78562
G1 X194.028 Y193.506 E145.92353
G1 X195.053 Y192.978 E146.06189
G1 X196.019 Y192.357 E146.19970
G1 X196.922 Y191.647 E146.33754
G1 X197.754 Y190.853 E146.47555
G1 X198.510 Y189.980 E146.61413
G1 X199.178 Y189.042 E146.75231
G1 X199.754 Y188.046 E146.89038
G1 X200.237 Y186.989 E147.02984
G1 X200.609 Y185.911 E147.16668
G1 X200.884 Y184.781 E147.30624
G1 X201.044 Y183.655 E147.44272
G1 X201.101 Y182.500 E147.58149
G1 X201.044 Y181.341 E147.72073
G1 X200.884 Y180.218 E147.85686
G1 X200.609 Y179.088 E147.99641
G1 X200.237 Y178.010 E148.13326
G1 X199.754 Y176.953 E148.27271
G1 X199.178 Y175.957 E148.41078
G1 X198.510 Y175.019 E148.54897
G1 X197.754 Y174.146 E148.68755
G1 X196.922 Y173.352 E148.82556
G1 X196.019 Y172.642 E148.96340
G1 X195.053 Y172.021 E149.10121
G1 X194.028 Y171.493 E149.23957
G1 X192.961 Y171.066 E149.37748
G1 X191.851 Y170.740 E149.51631
G1 X190.716 Y170.522 E149.65500
G1 X189.578 Y170.413 E149.79218
G1 X188.421 Y170.413 E149.93102
G1 X187.283 Y170.522 E150.06821
G1 X186.148 Y170.740 E150.20690
G1 X185.038 Y171.066 E150.34572
G1 X183.971 Y171.493 E150.48363
G1 X182.947 Y172.021 E150.62189
G1 X181.980 Y172.642 E150.75979
G1 X181.077 Y173.352 E150.89764
G1 X180.245 Y174.146 E151.03565
G1 X179.489 Y175.019 E151.17423
G1 X178.821 Y175.957 E151.31241
G1 X178.245 Y176.953 E151.45048
G1 X177.762 Y178.010 E151.58994
G1 X177.390 Y179.088 E151.72678
G1 X177.115 Y180.218 E151.86634
G1 X176.955 Y181.341 E152.00246
G1 X176.899 Y182.500 E152.14170
G1 X176.955 Y183.655 E152.28047
G1 X177.115 Y184.781 E152.41694
G0 F7200.00000 X177.017 Y184.799
G0 X160.670 Y152.670
G0 X160.600 Y152.600
G1 F1800.000 X160.600 Y121.900 E156.10094
G1 X146.900 Y121.900 E157.74494
G1 X146.900 Y152.600 E161.42894
G1 X160.600 Y152.600 E163.07294
G0 F7200.00000 X160.670 Y152.670
G0 X138.170 Y152.670
G0 X138.100 Y152.600
G1 F1800.000 X138.100 Y121.900 E166.75694
G1 X124.400 Y121.900 E168.40094
G1 X124.400 Y152.600 E172.08494
G1 X138.100 Y152.600 E173.72894
G0 F7200.00000 X137.700 Y152.200
;TYPE:WALL-OUTER
G1 F1800.000 X137.700 Y122.300 E177.31694
G1 X124.800 Y122.300 E178.86494
G1 X124.800 Y152.200 E182.45294
G1 X137.700 Y152.200 E184.00094
G0 F7200.00000 X137.700 Y152.700
G0 X137.700 Y161.300
G0 X137.700 Y161.800
G1 F1800.000 X124.800 Y161.800 E185.54894
G1 X124.800 Y191.700 E189.13694
G1 X137.700 Y191.700 E190.68494
G1 X137.700 Y161.800 E194.27294
G0 F7200.00000 X137.700 Y161.300
G0 X147.300 Y161.300
G0 X147.300 Y161.800
G1 F1800.000 X147.300 Y191.700 E197.86094
G1 X160.200 Y191.700 E199.40894
G1 X160.200 Y161.800 E202.99694
G1 X147.300 Y161.800 E204.54494
G0 F7200.00000 X147.300 Y161.300
G0 X146.800 Y152.200
G0 X147.300 Y152.200
G1 F1800.000 X160.200 Y152.200 E206.09294
G1 X160.200 Y122.300 E209.68094
G1 X147.300 Y122.300 E211.22894
G1 X147.300 Y152.200 E214.81694
G0 F7200.00000 X146.800 Y152.200
G0 X146.872 Y152.628
G0 X160.628 Y161.372
G0 X179.803 Y175.267
G1 F1800.000 X179.157 Y176.174 E214.95057
G1 X178.600 Y177.138 E215.08417
G1 X178.137 Y178.151 E215.21782
G1 X177.773 Y179.204 E215.35152
G1 X177.510 Y180.285 E215.48503
G1 X177.353 Y181.387 E215.61860
G1 X177.300 Y182.500 E215.75231
G1 X177.353 Y183.612 E215.88590
G1 X177.510 Y184.714 E216.01948
G1 X177.773 Y185.795 E216.15298
G1 X178.137 Y186.848 E216.28668
G1 X178.600 Y187.861 E216.42033
G1 X179.157 Y188.825 E216.55394
G1 X179.803 Y189.732 E216.68756
G1 X180.532 Y190.573 E216.82112
G1 X181.338 Y191.342 E216.95480
G1 X182.213 Y192.030 E217.08837
G1 X183.150 Y192.632 E217.22202
G1 X184.139 Y193.142 E217.35555
G1 X185.173 Y193.556 E217.48920
G1 X186.241 Y193.870 E217.62279
G1 X187.335 Y194.080 E217.75646
G1 X188.442 Y194.186 E217.88991
G1 X189.557 Y194.186 E218.02371
G1 X190.664 Y194.080 E218.15716
G1 X191.758 Y193.870 E218.29084
G1 X192.826 Y193.556 E218.42442
G1 X193.860 Y193.142 E218.55808
G1 X194.850 Y192.632 E218.69171
G1 X195.786 Y192.030 E218.82526
G1 X196.661 Y191.342 E218.95883
G1 X197.467 Y190.573 E219.09251
G1 X198.196 Y189.732 E219.22607
G1 X198.842 Y188.825 E219.35969
G1 X199.399 Y187.861 E219.49329
G1 X199.862 Y186.848 E219.62695
G1 X200.226 Y185.795 E219.76064
G1 X200.489 Y184.714 E219.89415
G1 X200.646 Y183.612 E220.02772
G1 X200.700 Y182.500 E220.16132
G1 X200.646 Y181.387 E220.29504
G1 X200.489 Y180.285 E220.42861
G1 X200.226 Y179.204 E220.56212
G1 X199.862 Y178.151 E220.69581
G1 X199.399 Y177.138 E220.82947
G1 X198.842 Y176.174 E220.96307
G1 X198.196 Y175.267 E221.09670
G1 X197.467 Y174.426 E221.23025
G1 X196.661 Y173.657 E221.36393
G1 X195.786 Y172.969 E221.49750
G1 X194.850 Y172.367 E221.63105
G1 X193.860 Y171.857 E221.76469
G1 X192.826 Y171.443 E221.89834
G1 X191.758 Y171.129 E222.03193
G1 X190.664 Y170.919 E222.16560
G1 X189.557 Y170.813 E222.29905
G1 X188.442 Y170.813 E222.43285
G1 X187.335 Y170.919 E222.56630
G1 X186.241 Y171.129 E222.69998
G1 X185.173 Y171.443 E222.83356
G1 X184.139 Y171.857 E222.96722
G1 X183.150 Y172.367 E223.10075
G1 X182.213 Y172.969 E223.23439
G1 X181.338 Y173.657 E223.36796
G1 X180.532 Y174.426 E223.50164
G1 X179.803 Y175.267 E223.63520
G0 F7200.00000 X179.426 Y174.941
G0 X178.210 Y176.935
G0 X177.725 Y177.996
G0 X177.352 Y179.077
G0 X177.076 Y180.211
G0 X176.916 Y181.338
G0 X176.859 Y182.500
G0 X176.916 Y183.658
G0 X177.076 Y184.788
G0 X177.352 Y185.922
G0 X177.725 Y187.003
G0 X178.210 Y188.064
G0 X178.788 Y189.063
G0 X179.458 Y190.004
G0 X180.217 Y190.880
G0 X181.051 Y191.677
G0 X181.957 Y192.389
G0 X214.800 Y212.300
G1 F1800.000 X127.200 Y212.300 E234.14720
G1 X127.200 Y200.300 E235.58720
G1 X115.200 Y200.300 E237.02720
G1 X115.200 Y112.700 E247.53920
G1 X202.800 Y112.700 E258.05120
G1 X202.800 Y124.700 E259.49120
G1 X214.800 Y124.700 E260.93120
G1 X214.800 Y212.300 E271.44320
G0 F7200.00000 X213.962 Y211.699
;TYPE:SKIN
G1 F1800.000 X195.312 Y193.049 E274.60821
G0 F7200.00000 X195.656 Y192.828
G1 F1800.000 X214.198 Y211.370 E277.75489
G0 F7200.00000 X214.198 Y210.804
G1 F1800.000 X196.000 Y192.606 E280.84320
G0 F7200.00000 X196.328 Y192.368
G1 F1800.000 X214.198 Y210.239 E283.87592
G0 F7200.00000 X214.198 Y209.673
G1 F1800.000 X196.644 Y192.119 E286.85493
G0 F7200.00000 X196.961 Y191.870
G1 F1800.000 X214.198 Y209.107 E289.78015
G0 F7200.00000 X214.198 Y208.542
G1 F1800.000 X197.258 Y191.601 E292.65505
G0 F7200.00000 X197.547 Y191.325
G1 F1800.000 X214.198 Y207.976 E295.48082
